%
O1000
(TEKYAZ POST)
(PARCA ISMI=CHF112-07-049_MILLING)
(15-AUG-2024)
( TAKIM -16- TARAMA CAP 25.0 R0. MM T_Boyu 42.MM)
( TAKIM -17- FREZE CAP 17.4 MM  T_Boyu 35.MM )
( TAKIM -18- FREZE CAP 10.0 MM  T_Boyu 35.MM )
G90 G80 G49 G40
G5.1Q0
G54.1 P41
G91G28Z0
M1
T16 M6( TAKIM -16- TARAMA CAP 25.0 R0. MM T_Boyu 42.MM)
T17
S1800 M3
G80 G49 G40
G5.1Q1
G90 G00 G40 G54.1 P41 X58.578 Y76.348
G43 H16 Z120.
(-----P-seçilen-yüzeyler-----)
G0 X58.578 Y76.348 Z25.
M8
   Z2.
G1 Z-0.487 F300
   Y69.988 F1000
   Y69.998
G2 X86. Y33.5 R38.
G1 Y-63.435
G0 Z25.
   X-91.589 Y-66.448
   Z2.
G1 Z-0.487 F300
   X-85.991 Y-63.429 F1000
   X-86. Y-63.434
   Y33.5
G2 X-58.594 Y69.993 R38.
G0 Z25.
   X-73.5 Y-76.349
   Z2.
G1 Z-0.487 F300
   Y-69.989 F1000
   Y-69.999
   Y33.5
G2 X-48. Y59. R25.5
G1 X48.
G2 X73.5 Y33.5 R25.5
G1 Y-69.999
G0 Z25.
   X-61. Y-76.349
   Z2.
G1 Z-0.487 F300
   Y33.5 F1000
G2 X-48. Y46.5 R13.
G1 X48.
G2 X61. Y33.5 R13.
G1 Y-69.999
G0 Z25.
   X58.578 Y76.348
   Z1.513
G1 Z-0.973 F300
   Y69.988 F1000
   Y69.998
G2 X86. Y33.5 R38.
G1 Y-63.435
G0 Z25.
   X-91.589 Y-66.448
   Z2.
G1 Z-0.973 F300
   X-85.991 Y-63.429 F1000
   X-86. Y-63.434
   Y33.5
G2 X-58.594 Y69.993 R38.
G0 Z25.
   X-73.5 Y-76.349
   Z2.
G1 Z-0.973 F300
   Y-69.989 F1000
   Y-69.999
   Y33.5
G2 X-48. Y59. R25.5
G1 X48.
G2 X73.5 Y33.5 R25.5
G1 Y-69.999
G0 Z25.
   X-61. Y-76.349
   Z2.
G1 Z-0.973 F300
   Y33.5 F1000
G2 X-48. Y46.5 R13.
G1 X48.
G2 X61. Y33.5 R13.
G1 Y-69.999
G0 Z25.
   X58.578 Y76.348
   Z1.027
G1 Z-1.46 F300
   Y69.988 F1000
   Y69.998
G2 X86. Y33.5 R38.
G1 Y-63.435
G0 Z25.
   X-91.589 Y-66.448
   Z2.
G1 Z-1.46 F300
   X-85.991 Y-63.429 F1000
   X-86. Y-63.434
   Y33.5
G2 X-58.594 Y69.993 R38.
G0 Z25.
   X-73.5 Y-76.349
   Z2.
G1 Z-1.46 F300
   Y-69.989 F1000
   Y-69.999
   Y33.5
G2 X-48. Y59. R25.5
G1 X48.
G2 X73.5 Y33.5 R25.5
G1 Y-69.999
G0 Z25.
   X-61. Y-76.349
   Z2.
G1 Z-1.46 F300
   Y33.5 F1000
G2 X-48. Y46.5 R13.
G1 X48.
G2 X61. Y33.5 R13.
G1 Y-69.999
G0 Z25.
   X58.578 Y76.348
   Z0.54
G1 Z-1.947 F300
   Y69.988 F1000
   Y69.998
G2 X86. Y33.5 R38.
G1 Y-63.435
G0 Z25.
   X-91.589 Y-66.448
   Z2.
G1 Z-1.947 F300
   X-85.991 Y-63.429 F1000
   X-86. Y-63.434
   Y33.5
G2 X-58.594 Y69.993 R38.
G0 Z25.
   X-73.5 Y-76.349
   Z2.
G1 Z-1.947 F300
   Y-69.989 F1000
   Y-69.999
   Y33.5
G2 X-48. Y59. R25.5
G1 X48.
G2 X73.5 Y33.5 R25.5
G1 Y-69.999
G0 Z25.
   X-61. Y-76.349
   Z2.
G1 Z-1.947 F300
   Y33.5 F1000
G2 X-48. Y46.5 R13.
G1 X48.
G2 X61. Y33.5 R13.
G1 Y-69.999
G0 Z25.
   X58.578 Y76.348
   Z0.053
G1 Z-2.433 F300
   Y69.988 F1000
   Y69.998
G2 X86. Y33.5 R38.
G1 Y-63.435
G0 Z25.
   X-91.589 Y-66.448
   Z2.
G1 Z-2.433 F300
   X-85.991 Y-63.429 F1000
   X-86. Y-63.434
   Y33.5
G2 X-58.594 Y69.993 R38.
G0 Z25.
   X-73.5 Y-76.349
   Z2.
G1 Z-2.433 F300
   Y-69.989 F1000
   Y-69.999
   Y33.5
G2 X-48. Y59. R25.5
G1 X48.
G2 X73.5 Y33.5 R25.5
G1 Y-69.999
G0 Z25.
   X-61. Y-76.349
   Z2.
G1 Z-2.433 F300
   Y33.5 F1000
G2 X-48. Y46.5 R13.
G1 X48.
G2 X61. Y33.5 R13.
G1 Y-69.999
G0 Z25.
   X58.578 Y76.348
   Z-0.433
G1 Z-2.92 F300
   Y69.988 F1000
   Y69.998
G2 X86. Y33.5 R38.
G1 Y-63.435
G0 Z25.
   X-91.589 Y-66.448
   Z2.
G1 Z-2.92 F300
   X-85.991 Y-63.429 F1000
   X-86. Y-63.434
   Y33.5
G2 X-58.594 Y69.993 R38.
G0 Z25.
   X-73.5 Y-76.349
   Z2.
G1 Z-2.92 F300
   Y-69.989 F1000
   Y-69.999
   Y33.5
G2 X-48. Y59. R25.5
G1 X48.
G2 X73.5 Y33.5 R25.5
G1 Y-69.999
G0 Z25.
   X-61. Y-76.349
   Z2.
G1 Z-2.92 F300
   Y33.5 F1000
G2 X-48. Y46.5 R13.
G1 X48.
G2 X61. Y33.5 R13.
G1 Y-69.999
G0 Z25.
   X58.578 Y76.348
   Z-0.92
G1 Z-3.407 F300
   Y69.988 F1000
   Y69.998
G2 X86. Y33.5 R38.
G1 Y-63.435
G0 Z25.
   X-91.589 Y-66.448
   Z2.
G1 Z-3.407 F300
   X-85.991 Y-63.429 F1000
   X-86. Y-63.434
   Y33.5
G2 X-58.594 Y69.993 R38.
G0 Z25.
   X-73.5 Y-76.349
   Z2.
G1 Z-3.407 F300
   Y-69.989 F1000
   Y-69.999
   Y33.5
G2 X-48. Y59. R25.5
G1 X48.
G2 X73.5 Y33.5 R25.5
G1 Y-69.999
G0 Z25.
   X-61. Y-76.349
   Z2.
G1 Z-3.407 F300
   Y33.5 F1000
G2 X-48. Y46.5 R13.
G1 X48.
G2 X61. Y33.5 R13.
G1 Y-69.999
G0 Z25.
   X58.578 Y76.348
   Z-1.407
G1 Z-3.893 F300
   Y69.988 F1000
   Y69.998
G2 X86. Y33.5 R38.
G1 Y-63.435
G0 Z25.
   X-91.589 Y-66.448
   Z2.
G1 Z-3.893 F300
   X-85.991 Y-63.429 F1000
   X-86. Y-63.434
   Y33.5
G2 X-58.594 Y69.993 R38.
G0 Z25.
   X-73.5 Y-76.349
   Z2.
G1 Z-3.893 F300
   Y-69.989 F1000
   Y-69.999
   Y33.5
G2 X-48. Y59. R25.5
G1 X48.
G2 X73.5 Y33.5 R25.5
G1 Y-69.999
G0 Z25.
   X-61. Y-76.349
   Z2.
G1 Z-3.893 F300
   Y33.5 F1000
G2 X-48. Y46.5 R13.
G1 X48.
G2 X61. Y33.5 R13.
G1 Y-69.999
G0 Z25.
   X58.578 Y76.348
   Z-1.893
G1 Z-4.38 F300
   Y69.988 F1000
   Y69.998
G2 X86. Y33.5 R38.
G1 Y-63.435
G0 Z25.
   X-91.589 Y-66.448
   Z2.
G1 Z-4.38 F300
   X-85.991 Y-63.429 F1000
   X-86. Y-63.434
   Y33.5
G2 X-58.594 Y69.993 R38.
G0 Z25.
   X-73.5 Y-76.349
   Z2.
G1 Z-4.38 F300
   Y-69.989 F1000
   Y-69.999
   Y33.5
G2 X-48. Y59. R25.5
G1 X48.
G2 X73.5 Y33.5 R25.5
G1 Y-69.999
G0 Z25.
   X-61. Y-76.349
   Z2.
G1 Z-4.38 F300
   Y33.5 F1000
G2 X-48. Y46.5 R13.
G1 X48.
G2 X61. Y33.5 R13.
G1 Y-69.999
G0 Z25.
   X58.578 Y76.348
   Z-2.38
G1 Z-4.867 F300
   Y69.988 F1000
   Y69.998
G2 X86. Y33.5 R38.
G1 Y-63.435
G0 Z25.
   X-91.589 Y-66.448
   Z2.
G1 Z-4.867 F300
   X-85.991 Y-63.429 F1000
   X-86. Y-63.434
   Y33.5
G2 X-58.594 Y69.993 R38.
G0 Z25.
   X-73.5 Y-76.349
   Z2.
G1 Z-4.867 F300
   Y-69.989 F1000
   Y-69.999
   Y33.5
G2 X-48. Y59. R25.5
G1 X48.
G2 X73.5 Y33.5 R25.5
G1 Y-69.999
G0 Z25.
   X-61. Y-76.349
   Z2.
G1 Z-4.867 F300
   Y33.5 F1000
G2 X-48. Y46.5 R13.
G1 X48.
G2 X61. Y33.5 R13.
G1 Y-69.999
G0 Z25.
   X58.578 Y76.348
   Z-2.867
G1 Z-5.353 F300
   Y69.988 F1000
   Y69.998
G2 X86. Y33.5 R38.
G1 Y-63.435
G0 Z25.
   X-91.589 Y-66.448
   Z2.
G1 Z-5.353 F300
   X-85.991 Y-63.429 F1000
   X-86. Y-63.434
   Y33.5
G2 X-58.594 Y69.993 R38.
G0 Z25.
   X-73.5 Y-76.349
   Z2.
G1 Z-5.353 F300
   Y-69.989 F1000
   Y-69.999
   Y33.5
G2 X-48. Y59. R25.5
G1 X48.
G2 X73.5 Y33.5 R25.5
G1 Y-69.999
G0 Z25.
   X-61. Y-76.349
   Z2.
G1 Z-5.353 F300
   Y33.5 F1000
G2 X-48. Y46.5 R13.
G1 X48.
G2 X61. Y33.5 R13.
G1 Y-69.999
G0 Z25.
   X58.578 Y76.348
   Z-3.353
G1 Z-5.84 F300
   Y69.988 F1000
   Y69.998
G2 X86. Y33.5 R38.
G1 Y-63.435
G0 Z25.
   X-91.589 Y-66.448
   Z2.
G1 Z-5.84 F300
   X-85.991 Y-63.429 F1000
   X-86. Y-63.434
   Y33.5
G2 X-58.594 Y69.993 R38.
G0 Z25.
   X-73.5 Y-76.349
   Z2.
G1 Z-5.84 F300
   Y-69.989 F1000
   Y-69.999
   Y33.5
G2 X-48. Y59. R25.5
G1 X48.
G2 X73.5 Y33.5 R25.5
G1 Y-69.999
G0 Z25.
   X-61. Y-76.349
   Z2.
G1 Z-5.84 F300
   Y33.5 F1000
G2 X-48. Y46.5 R13.
G1 X48.
G2 X61. Y33.5 R13.
G1 Y-69.999
G0 Z25.
   X58.578 Y76.348
   Z-3.84
G1 Z-6.327 F300
   Y69.988 F1000
   Y69.998
G2 X86. Y33.5 R38.
G1 Y-63.435
G0 Z25.
   X-91.589 Y-66.448
   Z2.
G1 Z-6.327 F300
   X-85.991 Y-63.429 F1000
   X-86. Y-63.434
   Y33.5
G2 X-58.594 Y69.993 R38.
G0 Z25.
   X-73.5 Y-76.349
   Z2.
G1 Z-6.327 F300
   Y-69.989 F1000
   Y-69.999
   Y33.5
G2 X-48. Y59. R25.5
G1 X48.
G2 X73.5 Y33.5 R25.5
G1 Y-69.999
G0 Z25.
   X-61. Y-76.349
   Z2.
G1 Z-6.327 F300
   Y33.5 F1000
G2 X-48. Y46.5 R13.
G1 X48.
G2 X61. Y33.5 R13.
G1 Y-69.999
G0 Z25.
   X58.578 Y76.348
   Z-4.327
G1 Z-6.813 F300
   Y69.988 F1000
   Y69.998
G2 X86. Y33.5 R38.
G1 Y-63.435
G0 Z25.
   X-91.589 Y-66.448
   Z2.
G1 Z-6.813 F300
   X-85.991 Y-63.429 F1000
   X-86. Y-63.434
   Y33.5
G2 X-58.594 Y69.993 R38.
G0 Z25.
   X-73.5 Y-76.349
   Z2.
G1 Z-6.813 F300
   Y-69.989 F1000
   Y-69.999
   Y33.5
G2 X-48. Y59. R25.5
G1 X48.
G2 X73.5 Y33.5 R25.5
G1 Y-69.999
G0 Z25.
   X-61. Y-76.349
   Z2.
G1 Z-6.813 F300
   Y33.5 F1000
G2 X-48. Y46.5 R13.
G1 X48.
G2 X61. Y33.5 R13.
G1 Y-69.999
G0 Z25.
   X58.578 Y76.348
   Z-4.813
G1 Z-7.3 F300
   Y69.988 F1000
   Y69.998
G2 X86. Y33.5 R38.
G1 Y-63.435
G0 Z25.
   X-91.589 Y-66.448
   Z2.
G1 Z-7.3 F300
   X-85.991 Y-63.429 F1000
   X-86. Y-63.434
   Y33.5
G2 X-58.594 Y69.993 R38.
G0 Z25.
   X-73.5 Y-76.349
   Z2.
G1 Z-7.3 F300
   Y-69.989 F1000
   Y-69.999
   Y33.5
G2 X-48. Y59. R25.5
G1 X48.
G2 X73.5 Y33.5 R25.5
G1 Y-69.999
G0 Z25.
   X-61. Y-76.349
   Z2.
G1 Z-7.3 F300
   Y33.5 F1000
G2 X-48. Y46.5 R13.
G1 X48.
G2 X61. Y33.5 R13.
G1 Y-69.999
G0 Z25.
G5.1Q0
M9
M5
G91G28Z0
G5.1Q0
M1
T17 M6( TAKIM -17- FREZE CAP 17.4 MM  T_Boyu 35.MM)
T18
S1300 M3
G80 G49 G40
G5.1Q1
G90 G00 G40 G54.1 P41 X78.368 Y71.777
G43 H17 Z120.
(-----P-seçilen-yüzeyler-1-----)
G0 X78.368 Y71.777 Z25.
M8
   Z-5.5
G1 Z-7.5 F300
   X76.995 Y65.957
   X76.997 Y65.966
G2 X83.642 Y58.491 R43.53
G0 Z25.
   X59.998 Y72.169
   Z-5.3
G1 Z-7.5
   Y66.188
   Y66.198
G2 X82.83 Y33.5 R34.83
G1 Y-61.267
G0 Z25.
   X-78.374 Y71.773
   Z-5.3
G1 Z-7.5
   X-76.998 Y65.954
   X-77. Y65.963
G3 X-83.641 Y58.492 R43.53
G0 Z25.
   X-60.003 Y72.167
   Z-5.3
G1 Z-7.5
   Y66.187
   Y66.197
G3 X-82.83 Y33.5 R34.83
G1 Y-61.284
G3 X-81.782 Y-62.984 R3.051
   X-75.178 Y-66.714 R16.449
G1 X-74.374 Y-66.648
G3 X-74.13 Y-66.199 R0.482
G1 Y-66.196
   Y33.5
G2 X-48. Y59.63 R26.13
G1 X48.
G2 X74.13 Y33.5 R26.13
G1 Y-66.178
G2 X73.226 Y-67.222 R1.387
   X66.075 Y-67.085 R9.873
   X65.43 Y-66.179 R0.93
G1 Y33.5
G3 X48. Y50.93 R17.43
G1 X-48.
G3 X-65.43 Y33.5 R17.43
G1 Y-66.196
   Y-66.197
G3 X-64.525 Y-67.241 R1.387
   X-57.375 Y-67.102 R9.872
   X-56.73 Y-66.196 R0.931
G1 Y33.5
G2 X-48. Y42.23 R8.73
G1 X48.
G2 X56.73 Y33.5 R8.73
G1 Y-66.18
G0 Z25.
   X-56.7 Y-66.197
   Z-5.3
G1 Z-7.5 F300
   Y33.5 F300
G2 X-48. Y42.2 R8.7
G1 X48.
G2 X56.7 Y33.5 R8.7
G1 Y-66.181
G0 Z25.
G5.1Q0
M9
M5
G91G28Z0
G5.1Q0
M1
T18 M6( TAKIM -18- FREZE CAP 10.0 MM  T_Boyu 35.MM)
S3500 M3
G80 G49 G40
G5.1Q1
G90 G00 G40 G54.1 P41 X-59. Y-57.5
G43 H18 Z120.
(-----F-kontur1-----)
G0 X-59. Y-57.5 Z25.
M8
   Z2.
G1 Z-4.3 F300
   Y-63.5 F1000
G3 X-53. Y-57.5 R6.
G1 Y33.5
G2 X-48. Y38.5 R5.
G1 X48.
G2 X53. Y33.5 R5.
G1 Y-57.5
G2 X48. Y-62.5 R5.
G1 X27.
G2 X22. Y-57.5 R5.
G1 Y23.5
G3 X21. Y24.5 R1.
G1 X-21.
G3 X-22. Y23.5 R1.
G1 Y-57.5
G2 X-27. Y-62.5 R5.
G1 X-48.
G2 X-53. Y-57.5 R5.
G3 X-59. Y-51.5 R6.
G1 Y-57.5
G0 Z25.
G5.1Q0
M5
M9
G91G28Z0
G91G28Y0
M30
%