%
O5001
(TEKYAZ POST)
(PARCA ISMI=FQK_213021_AA_D_MILLING_1) 
( 3-JUL-2023)
( TAKIM -10- FREZE CAP 10.0 MM  T_Boyu 35.MM ) 
G90G80G49G40 
G5.1Q0 
G54.1P14 
G91G28Z0 
T10M6( TAKIM -10- FREZE CAP 10.0 MM  T_Boyu 35.MM) 
S4000M3
G80G49G40
G5.1Q1 
M11
G0G90A0. 
M10
G90G00G40G54.1P14X14.446Y-56.783 
G43H10Z120.T12 
(-----F-kontur1-----)
G0X14.446Y-56.783Z80.
M57
Z-4. 
G1Z-19.F1000 
X19.746Y-48.302F600
G3X20.657Y-45.123I-5.089J3.179 
X17.837Y-40.034I-6.J0. 
G1X7.917Y-33.836 
G2X0.Y-34.75I-7.917J33.836 
X-7.917Y-33.836I0.J34.75 
G1X-17.837Y-40.034 
G2X-25.918Y-42.352I-8.081J12.932 
X-36.458Y-38.123I0.J15.25
X-38.123Y-36.458I36.458J38.123 
X-42.352Y-25.918I11.021J10.54
X-40.034Y-17.837I15.25J0.
G1X-33.836Y-7.917
G2X-34.75Y0.I33.836J7.917
X-33.836Y7.917I34.75J0.
G1X-40.034Y17.837
G2X-42.352Y25.918I12.932J8.081 
X-38.123Y36.458I15.25J0. 
X-36.458Y38.123I38.123J-36.458 
X-25.918Y42.352I10.54J-11.021
X-17.837Y40.034I0.J-15.25
G1X-7.917Y33.836 
G2X0.Y34.75I7.917J-33.836
X7.917Y33.836I0.J-34.75
G1X17.837Y40.034 
G2X25.918Y42.352I8.081J-12.932 
X36.458Y38.123I0.J-15.25 
X38.123Y36.458I-36.458J-38.123 
X42.352Y25.918I-11.021J-10.54
X40.034Y17.837I-15.25J0. 
G1X33.836Y7.917
G2X34.75Y0.I-33.836J-7.917 
X33.836Y-7.917I-34.75J0. 
G1X40.034Y-17.837
G2X42.352Y-25.918I-12.932J-8.081 
X38.123Y-36.458I-15.25J0.
X36.458Y-38.123I-38.123J36.458 
X25.918Y-42.352I-10.54J11.021
X17.837Y-40.034I0.J15.25 
G3X14.657Y-39.123I-3.18J-5.089 
X9.569Y-41.943I0.J-6.
G1X14.657Y-45.123
G0Z120.
 
G90G00G40G54.1P15X14.446Y-56.783 
G43H10Z120.
G0X14.446Y-56.783Z80.
Z-4. 
G1Z-19.F1000 
X19.746Y-48.302F600
G3X20.657Y-45.123I-5.089J3.179 
X17.837Y-40.034I-6.J0. 
G1X7.917Y-33.836 
G2X0.Y-34.75I-7.917J33.836 
X-7.917Y-33.836I0.J34.75 
G1X-17.837Y-40.034 
G2X-25.918Y-42.352I-8.081J12.932 
X-36.458Y-38.123I0.J15.25
X-38.123Y-36.458I36.458J38.123 
X-42.352Y-25.918I11.021J10.54
X-40.034Y-17.837I15.25J0.
G1X-33.836Y-7.917
G2X-34.75Y0.I33.836J7.917
X-33.836Y7.917I34.75J0.
G1X-40.034Y17.837
G2X-42.352Y25.918I12.932J8.081 
X-38.123Y36.458I15.25J0. 
X-36.458Y38.123I38.123J-36.458 
X-25.918Y42.352I10.54J-11.021
X-17.837Y40.034I0.J-15.25
G1X-7.917Y33.836 
G2X0.Y34.75I7.917J-33.836
X7.917Y33.836I0.J-34.75
G1X17.837Y40.034 
G2X25.918Y42.352I8.081J-12.932 
X36.458Y38.123I0.J-15.25 
X38.123Y36.458I-36.458J-38.123 
X42.352Y25.918I-11.021J-10.54
X40.034Y17.837I-15.25J0. 
G1X33.836Y7.917
G2X34.75Y0.I-33.836J-7.917 
X33.836Y-7.917I-34.75J0. 
G1X40.034Y-17.837
G2X42.352Y-25.918I-12.932J-8.081 
X38.123Y-36.458I-15.25J0.
X36.458Y-38.123I-38.123J36.458 
X25.918Y-42.352I-10.54J11.021
X17.837Y-40.034I0.J15.25 
G3X14.657Y-39.123I-3.18J-5.089 
X9.569Y-41.943I0.J-6.
G1X14.657Y-45.123
G0Z120.
 
G90G00G40G54.1P16X14.446Y-56.783 
G43H10Z120.
G0X14.446Y-56.783Z80.
Z-4. 
G1Z-19.F1000 
X19.746Y-48.302F600
G3X20.657Y-45.123I-5.089J3.179 
X17.837Y-40.034I-6.J0. 
G1X7.917Y-33.836 
G2X0.Y-34.75I-7.917J33.836 
X-7.917Y-33.836I0.J34.75 
G1X-17.837Y-40.034 
G2X-25.918Y-42.352I-8.081J12.932 
X-36.458Y-38.123I0.J15.25
X-38.123Y-36.458I36.458J38.123 
X-42.352Y-25.918I11.021J10.54
X-40.034Y-17.837I15.25J0.
G1X-33.836Y-7.917
G2X-34.75Y0.I33.836J7.917
X-33.836Y7.917I34.75J0.
G1X-40.034Y17.837
G2X-42.352Y25.918I12.932J8.081 
X-38.123Y36.458I15.25J0. 
X-36.458Y38.123I38.123J-36.458 
X-25.918Y42.352I10.54J-11.021
X-17.837Y40.034I0.J-15.25
G1X-7.917Y33.836 
G2X0.Y34.75I7.917J-33.836
X7.917Y33.836I0.J-34.75
G1X17.837Y40.034 
G2X25.918Y42.352I8.081J-12.932 
X36.458Y38.123I0.J-15.25 
X38.123Y36.458I-36.458J-38.123 
X42.352Y25.918I-11.021J-10.54
X40.034Y17.837I-15.25J0. 
G1X33.836Y7.917
G2X34.75Y0.I-33.836J-7.917 
X33.836Y-7.917I-34.75J0. 
G1X40.034Y-17.837
G2X42.352Y-25.918I-12.932J-8.081 
X38.123Y-36.458I-15.25J0.
X36.458Y-38.123I-38.123J36.458 
X25.918Y-42.352I-10.54J11.021
X17.837Y-40.034I0.J15.25 
G3X14.657Y-39.123I-3.18J-5.089 
X9.569Y-41.943I0.J-6.
G1X14.657Y-45.123
G0Z120.
 
G90G00G40G54.1P17X14.446Y-56.783 
G43H10Z120.
G0X14.446Y-56.783Z80.
Z-4. 
G1Z-19.F1000 
X19.746Y-48.302F600
G3X20.657Y-45.123I-5.089J3.179 
X17.837Y-40.034I-6.J0. 
G1X7.917Y-33.836 
G2X0.Y-34.75I-7.917J33.836 
X-7.917Y-33.836I0.J34.75 
G1X-17.837Y-40.034 
G2X-25.918Y-42.352I-8.081J12.932 
X-36.458Y-38.123I0.J15.25
X-38.123Y-36.458I36.458J38.123 
X-42.352Y-25.918I11.021J10.54
X-40.034Y-17.837I15.25J0.
G1X-33.836Y-7.917
G2X-34.75Y0.I33.836J7.917
X-33.836Y7.917I34.75J0.
G1X-40.034Y17.837
G2X-42.352Y25.918I12.932J8.081 
X-38.123Y36.458I15.25J0. 
X-36.458Y38.123I38.123J-36.458 
X-25.918Y42.352I10.54J-11.021
X-17.837Y40.034I0.J-15.25
G1X-7.917Y33.836 
G2X0.Y34.75I7.917J-33.836
X7.917Y33.836I0.J-34.75
G1X17.837Y40.034 
G2X25.918Y42.352I8.081J-12.932 
X36.458Y38.123I0.J-15.25 
X38.123Y36.458I-36.458J-38.123 
X42.352Y25.918I-11.021J-10.54
X40.034Y17.837I-15.25J0. 
G1X33.836Y7.917
G2X34.75Y0.I-33.836J-7.917 
X33.836Y-7.917I-34.75J0. 
G1X40.034Y-17.837
G2X42.352Y-25.918I-12.932J-8.081 
X38.123Y-36.458I-15.25J0.
X36.458Y-38.123I-38.123J36.458 
X25.918Y-42.352I-10.54J11.021
X17.837Y-40.034I0.J15.25 
G3X14.657Y-39.123I-3.18J-5.089 
X9.569Y-41.943I0.J-6.
G1X14.657Y-45.123
G0Z120.
G91G28Z0.
 
N100 
 
M57
G90G80G49G40 
G5.1Q0 
G54.1P10 
G91G28Z0 
G5.1Q1 
M11
G0G90A0. 
M10
G90G00G40G54.1P10X13.098Y-55.305 
G43H10Z120.
(-----F-kontur5-----)
G0X13.098Y-55.305Z25.
M57
Z-4.45 
G1Z-15.45F1000 
X18.397Y-46.825F600
G3X19.308Y-43.645I-5.089J3.18
X16.488Y-38.557I-6.J0. 
G1X6.236Y-32.151 
G2X0.Y-32.75I-6.236J32.151 
X-6.236Y-32.151I0.J32.75 
G1X-16.488Y-38.557 
G2X-24.569Y-40.874I-8.081J12.933 
X-35.124Y-36.632I0.J15.25
X-36.632Y-35.124I35.124J36.632 
X-40.874Y-24.569I11.008J10.555 
X-38.557Y-16.488I15.25J0.
G1X-32.151Y-6.236
G2X-32.75Y0.I32.151J6.236
X-32.151Y6.236I32.75J0.
G1X-38.557Y16.488
G2X-40.874Y24.569I12.933J8.081 
X-36.632Y35.124I15.25J0. 
X-35.124Y36.632I36.632J-35.124 
X-24.569Y40.874I10.555J-11.008 
X-16.488Y38.557I0.J-15.25
G1X-6.236Y32.151 
G2X0.Y32.75I6.236J-32.151
X6.236Y32.151I0.J-32.75
G1X16.488Y38.557 
G2X24.569Y40.874I8.081J-12.933 
X35.124Y36.632I0.J-15.25 
X36.632Y35.124I-35.124J-36.632 
X40.874Y24.569I-11.008J-10.555 
X38.557Y16.488I-15.25J0. 
G1X32.151Y6.236
G2X32.75Y0.I-32.151J-6.236 
X32.151Y-6.236I-32.75J0. 
G1X38.557Y-16.488
G2X40.874Y-24.569I-12.933J-8.081 
X36.632Y-35.124I-15.25J0.
X35.124Y-36.632I-36.632J35.124 
X24.569Y-40.874I-10.555J11.008 
X16.488Y-38.557I0.J15.25 
G3X13.308Y-37.645I-3.18J-5.088 
X8.22Y-40.466I0.J-6. 
G1X13.308Y-43.645
G0Z120.
 
G90G00G40G54.1P11X13.098Y-55.305 
G43H10Z120.
G0X13.098Y-55.305Z25.
Z-4.45 
G1Z-15.45F1000 
X18.397Y-46.825F600
G3X19.308Y-43.645I-5.089J3.18
X16.488Y-38.557I-6.J0. 
G1X6.236Y-32.151 
G2X0.Y-32.75I-6.236J32.151 
X-6.236Y-32.151I0.J32.75 
G1X-16.488Y-38.557 
G2X-24.569Y-40.874I-8.081J12.933 
X-35.124Y-36.632I0.J15.25
X-36.632Y-35.124I35.124J36.632 
X-40.874Y-24.569I11.008J10.555 
X-38.557Y-16.488I15.25J0.
G1X-32.151Y-6.236
G2X-32.75Y0.I32.151J6.236
X-32.151Y6.236I32.75J0.
G1X-38.557Y16.488
G2X-40.874Y24.569I12.933J8.081 
X-36.632Y35.124I15.25J0. 
X-35.124Y36.632I36.632J-35.124 
X-24.569Y40.874I10.555J-11.008 
X-16.488Y38.557I0.J-15.25
G1X-6.236Y32.151 
G2X0.Y32.75I6.236J-32.151
X6.236Y32.151I0.J-32.75
G1X16.488Y38.557 
G2X24.569Y40.874I8.081J-12.933 
X35.124Y36.632I0.J-15.25 
X36.632Y35.124I-35.124J-36.632 
X40.874Y24.569I-11.008J-10.555 
X38.557Y16.488I-15.25J0. 
G1X32.151Y6.236
G2X32.75Y0.I-32.151J-6.236 
X32.151Y-6.236I-32.75J0. 
G1X38.557Y-16.488
G2X40.874Y-24.569I-12.933J-8.081 
X36.632Y-35.124I-15.25J0.
X35.124Y-36.632I-36.632J35.124 
X24.569Y-40.874I-10.555J11.008 
X16.488Y-38.557I0.J15.25 
G3X13.308Y-37.645I-3.18J-5.088 
X8.22Y-40.466I0.J-6. 
G1X13.308Y-43.645
G0Z120.
 
G90G00G40G54.1P12X13.098Y-55.305 
G43H10Z120.
G0X13.098Y-55.305Z25.
Z-4.45 
G1Z-15.45F1000 
X18.397Y-46.825F600
G3X19.308Y-43.645I-5.089J3.18
X16.488Y-38.557I-6.J0. 
G1X6.236Y-32.151 
G2X0.Y-32.75I-6.236J32.151 
X-6.236Y-32.151I0.J32.75 
G1X-16.488Y-38.557 
G2X-24.569Y-40.874I-8.081J12.933 
X-35.124Y-36.632I0.J15.25
X-36.632Y-35.124I35.124J36.632 
X-40.874Y-24.569I11.008J10.555 
X-38.557Y-16.488I15.25J0.
G1X-32.151Y-6.236
G2X-32.75Y0.I32.151J6.236
X-32.151Y6.236I32.75J0.
G1X-38.557Y16.488
G2X-40.874Y24.569I12.933J8.081 
X-36.632Y35.124I15.25J0. 
X-35.124Y36.632I36.632J-35.124 
X-24.569Y40.874I10.555J-11.008 
X-16.488Y38.557I0.J-15.25
G1X-6.236Y32.151 
G2X0.Y32.75I6.236J-32.151
X6.236Y32.151I0.J-32.75
G1X16.488Y38.557 
G2X24.569Y40.874I8.081J-12.933 
X35.124Y36.632I0.J-15.25 
X36.632Y35.124I-35.124J-36.632 
X40.874Y24.569I-11.008J-10.555 
X38.557Y16.488I-15.25J0. 
G1X32.151Y6.236
G2X32.75Y0.I-32.151J-6.236 
X32.151Y-6.236I-32.75J0. 
G1X38.557Y-16.488
G2X40.874Y-24.569I-12.933J-8.081 
X36.632Y-35.124I-15.25J0.
X35.124Y-36.632I-36.632J35.124 
X24.569Y-40.874I-10.555J11.008 
X16.488Y-38.557I0.J15.25 
G3X13.308Y-37.645I-3.18J-5.088 
X8.22Y-40.466I0.J-6. 
G1X13.308Y-43.645
G0Z120.
 
G90G00G40G54.1P13X13.098Y-55.305 
G43H10Z120.
G0X13.098Y-55.305Z25.
Z-4.45 
G1Z-15.45F1000 
X18.397Y-46.825F600
G3X19.308Y-43.645I-5.089J3.18
X16.488Y-38.557I-6.J0. 
G1X6.236Y-32.151 
G2X0.Y-32.75I-6.236J32.151 
X-6.236Y-32.151I0.J32.75 
G1X-16.488Y-38.557 
G2X-24.569Y-40.874I-8.081J12.933 
X-35.124Y-36.632I0.J15.25
X-36.632Y-35.124I35.124J36.632 
X-40.874Y-24.569I11.008J10.555 
X-38.557Y-16.488I15.25J0.
G1X-32.151Y-6.236
G2X-32.75Y0.I32.151J6.236
X-32.151Y6.236I32.75J0.
G1X-38.557Y16.488
G2X-40.874Y24.569I12.933J8.081 
X-36.632Y35.124I15.25J0. 
X-35.124Y36.632I36.632J-35.124 
X-24.569Y40.874I10.555J-11.008 
X-16.488Y38.557I0.J-15.25
G1X-6.236Y32.151 
G2X0.Y32.75I6.236J-32.151
X6.236Y32.151I0.J-32.75
G1X16.488Y38.557 
G2X24.569Y40.874I8.081J-12.933 
X35.124Y36.632I0.J-15.25 
X36.632Y35.124I-35.124J-36.632 
X40.874Y24.569I-11.008J-10.555 
X38.557Y16.488I-15.25J0. 
G1X32.151Y6.236
G2X32.75Y0.I-32.151J-6.236 
X32.151Y-6.236I-32.75J0. 
G1X38.557Y-16.488
G2X40.874Y-24.569I-12.933J-8.081 
X36.632Y-35.124I-15.25J0.
X35.124Y-36.632I-36.632J35.124 
X24.569Y-40.874I-10.555J11.008 
X16.488Y-38.557I0.J15.25 
G3X13.308Y-37.645I-3.18J-5.088 
X8.22Y-40.466I0.J-6. 
G1X13.308Y-43.645
G0Z120.
M5 
M9 
M59
G5.1Q0 
G91G28Z0 
G91G28Y0 
M01
M00
( TAKIM -12- MATKAP CAP 8.2MM  A118. DERECE T_Boyu 35.MM)
G90G80G49G40 
G54.1P10 
T12M6( TAKIM -12- MATKAP CAP 8.2MM  A118. DERECE T_Boyu 35.MM) 
S1800M3
G80G49G40
G0G90A0. 
G90G00G40G54.1P10X24.042Y24.042
G43H12Z120.T11 
(-----D-matkap2-----)
G0X24.042Y24.042Z80. 
M8 
G98G83Z-18.45R-4.45Q3.F120 
X-24.042 
Y-24.042 
X24.042
G80
 
G90G00G40G54.1P11X24.042Y24.042
G43H12Z80. 
(-----D-matkap2-----)
G0X24.042Y24.042Z80. 
G98G83Z-18.45R-4.45Q3.F120 
X-24.042 
Y-24.042 
X24.042
G80
 
G90G00G40G54.1P12X24.042Y24.042
G43H12Z80. 
(-----D-matkap2-----)
G0X24.042Y24.042Z80. 
G98G83Z-18.45R-4.45Q3.F120 
X-24.042 
Y-24.042 
X24.042
G80
 
G90G00G40G54.1P13X24.042Y24.042
G43H12Z80. 
(-----D-matkap2-----)
G0X24.042Y24.042Z80. 
G98G83Z-18.45R-4.45Q3.F120 
X-24.042 
Y-24.042 
X24.042
G80
M5 
M9 
G5.1Q0 
G91G28Z0 
G91G28Y0 
M01
( TAKIM -11- MATKAP CAP 8.5MM  A118. DERECE T_Boyu 35.MM)
G90G80G49G40 
G54.1P14 
T11M6( TAKIM -11- MATKAP CAP 8.5MM  A118. DERECE T_Boyu 35.MM) 
S1800M3
G80G49G40
M11
G0G90A0. 
M10
G90G00G40G54.1P14X24.749Y24.749
G43H11Z120.T13 
(-----D-matkap-----) 
G0X24.749Y24.749Z80. 
M8 
G98G83Z-21.R-4.Q2.F120 
X-24.749 
Y-24.749 
X24.749
G80
 
G90G00G40G54.1P15X24.749Y24.749
G43H11Z80. 
(-----D-matkap-----) 
G0X24.749Y24.749Z80. 
G98G83Z-21.R-4.Q2.F120 
X-24.749 
Y-24.749 
X24.749
G80
 
G90G00G40G54.1P16X24.749Y24.749
G43H11Z80. 
(-----D-matkap-----) 
G0X24.749Y24.749Z80. 
G98G83Z-21.R-4.Q2.F120 
X-24.749 
Y-24.749 
X24.749
G80
 
G90G00G40G54.1P17X24.749Y24.749
G43H11Z80. 
(-----D-matkap-----) 
G0X24.749Y24.749Z80. 
G98G83Z-21.R-4.Q2.F120 
X-24.749 
Y-24.749 
X24.749
G80
M5 
M9 
G5.1Q0 
G91G28Z0 
G91G28Y0 
M01
( TAKIM -13- SPOT MATKAP CAP 10.0MM  A90. DERECE T_Boyu 33.MM) 
G90G80G49G40 
G54.1P18 
T13M6( TAKIM -13- SPOT MATKAP CAP 10.0MM  A90. DERECE T_Boyu 33.MM)
S2000M3
G80G49G40
G0G90A0. 
M10
G90G00G40G54.1P18X0.Y24.6
G43H13Z120.T14 
(-----D-matkap3-----)
G0X0.Y24.6Z99. 
M8 
G98G81Z-2.5R2.F30
Y39.6
G80
 
G90G00G40G54.1P19X0.Y24.6
G43H13Z99. 
(-----D-matkap3-----)
G0X0.Y24.6Z99. 
G98G81Z-2.5R2.F30
Y39.6
G80
 
G90G00G40G54.1P20X0.Y24.6
G43H13Z99. 
(-----D-matkap3-----)
G0X0.Y24.6Z99. 
G98G81Z-2.5R2.F30
Y39.6
G80
 
G90G00G40G54.1P21X0.Y24.6
G43H13Z99. 
(-----D-matkap3-----)
G0X0.Y24.6Z99. 
G98G81Z-2.5R2.F30
Y39.6
G80
M5 
M9 
G5.1Q0 
G91G28Z0 
G91G28Y0 
M01
( TAKIM -14- MATKAP CAP 3.4MM  A118. DERECE T_Boyu 35.MM)
G90G80G49G40 
G54.1P18 
T14M6( TAKIM -14- MATKAP CAP 3.4MM  A118. DERECE T_Boyu 35.MM) 
S3000M3
G80G49G40
G90G00G40G54.1P18X0.Y24.6
G43H14Z120.T16 
(-----D-matkap4-----)
G0X0.Y24.6Z99. 
M8 
G98G83Z-11.R2.Q2.F100
Y39.6
G80
 
G90G00G40G54.1P19X0.Y24.6
G43H14Z99. 
(-----D-matkap4-----)
G0X0.Y24.6Z99. 
G98G83Z-11.R2.Q2.F100
Y39.6
G80
 
G90G00G40G54.1P20X0.Y24.6
G43H14Z99. 
(-----D-matkap4-----)
G0X0.Y24.6Z99. 
G98G83Z-11.R2.Q2.F100
Y39.6
G80
 
G90G00G40G54.1P21X0.Y24.6
G43H14Z99. 
(-----D-matkap4-----)
G0X0.Y24.6Z99. 
G98G83Z-11.R2.Q2.F100
Y39.6
G80
M5 
M9 
G5.1Q0 
G91G28Z0 
G91G28Y0 
M01
( TAKIM -16- FREZE CAP 10.0 MM  T_Boyu 35.MM ) 
G90G80G49G40 
G5.1Q0 
G54.1P14 
G91G28Z0 
T16M6( TAKIM -16- FREZE CAP 10.0 MM  T_Boyu 35.MM) 
S3500M3
G80G49G40
G5.1Q1 
G0G90A0. 
G90G00G40G54.1P14X-315.21Y-44.911
G43H16Z120.T13 
(-----F-kontur3-----)
G0X-315.21Y-44.911Z80. 
M8 
Z-4. 
G1Z-19.F500
G41D16G1X-305.882Y-50.74 
G3X-304.21Y-44.911I-9.328J5.829
X-309.381Y-35.582I-11.J0.
G1X-321.243Y-28.17 
G2X-330.Y-29.5I-8.757J28.17
X-338.757Y-28.17I0.J29.5 
G1X-350.619Y-35.582
G2X-355.918Y-37.102I-5.299J8.48
X-362.83Y-34.329I0.J10.
X-364.329Y-32.83I32.83J34.329
X-367.102Y-25.918I7.227J6.912
X-365.582Y-20.619I10.J0. 
G1X-358.17Y-8.757
G2X-359.5Y0.I28.17J8.757 
X-358.17Y8.757I29.5J0. 
G1X-365.582Y20.619 
G2X-367.102Y25.918I8.48J5.299
X-364.329Y32.83I10.J0. 
X-362.83Y34.329I34.329J-32.83
X-355.918Y37.102I6.912J-7.227
X-350.619Y35.582I0.J-10. 
G1X-338.757Y28.17
G2X-330.Y29.5I8.757J-28.17 
X-321.243Y28.17I0.J-29.5 
G1X-309.381Y35.582 
G2X-304.082Y37.102I5.299J-8.48 
X-297.17Y34.329I0.J-10.
X-295.671Y32.83I-32.83J-34.329 
X-292.898Y25.918I-7.227J-6.912 
X-294.418Y20.619I-10.J0. 
G1X-301.83Y8.757 
G2X-300.5Y0.I-28.17J-8.757 
X-301.83Y-8.757I-29.5J0. 
G1X-294.418Y-20.619
G2X-292.898Y-25.918I-8.48J-5.299 
X-295.671Y-32.83I-10.J0. 
X-297.17Y-34.329I-34.329J32.83 
X-304.082Y-37.102I-6.912J7.227 
X-309.381Y-35.582I0.J10. 
G3X-315.21Y-33.911I-5.829J-9.329 
X-324.539Y-39.082I0.J-11.
G40D16G1X-315.21Y-44.911 
G0Z120.
(-----F-kontur3-----)
X-205.21Y-44.911Z120.
Z-4. 
G1Z-19.F500
G41D16G1X-195.882Y-50.74 
G3X-194.21Y-44.911I-9.328J5.829
X-199.381Y-35.582I-11.J0.
G1X-211.243Y-28.17 
G2X-220.Y-29.5I-8.757J28.17
X-228.757Y-28.17I0.J29.5 
G1X-240.619Y-35.582
G2X-245.918Y-37.102I-5.299J8.48
X-252.83Y-34.329I0.J10.
X-254.329Y-32.83I32.83J34.329
X-257.102Y-25.918I7.227J6.912
X-255.582Y-20.619I10.J0. 
G1X-248.17Y-8.757
G2X-249.5Y0.I28.17J8.757 
X-248.17Y8.757I29.5J0. 
G1X-255.582Y20.619 
G2X-257.102Y25.918I8.48J5.299
X-254.329Y32.83I10.J0. 
X-252.83Y34.329I34.329J-32.83
X-245.918Y37.102I6.912J-7.227
X-240.619Y35.582I0.J-10. 
G1X-228.757Y28.17
G2X-220.Y29.5I8.757J-28.17 
X-211.243Y28.17I0.J-29.5 
G1X-199.381Y35.582 
G2X-194.082Y37.102I5.299J-8.48 
X-187.17Y34.329I0.J-10.
X-185.671Y32.83I-32.83J-34.329 
X-182.898Y25.918I-7.227J-6.912 
X-184.418Y20.619I-10.J0. 
G1X-191.83Y8.757 
G2X-190.5Y0.I-28.17J-8.757 
X-191.83Y-8.757I-29.5J0. 
G1X-184.418Y-20.619
G2X-182.898Y-25.918I-8.48J-5.299 
X-185.671Y-32.83I-10.J0. 
X-187.17Y-34.329I-34.329J32.83 
X-194.082Y-37.102I-6.912J7.227 
X-199.381Y-35.582I0.J10. 
G3X-205.21Y-33.911I-5.829J-9.329 
X-214.539Y-39.082I0.J-11.
G40D16G1X-205.21Y-44.911 
G0Z120.
(-----F-kontur3-----)
X-95.21Y-44.911Z120. 
Z-4. 
G1Z-19.F500
G41D16G1X-85.882Y-50.74
G3X-84.21Y-44.911I-9.328J5.829 
X-89.381Y-35.582I-11.J0. 
G1X-101.243Y-28.17 
G2X-110.Y-29.5I-8.757J28.17
X-118.757Y-28.17I0.J29.5 
G1X-130.619Y-35.582
G2X-135.918Y-37.102I-5.299J8.48
X-142.83Y-34.329I0.J10.
X-144.329Y-32.83I32.83J34.329
X-147.102Y-25.918I7.227J6.912
X-145.582Y-20.619I10.J0. 
G1X-138.17Y-8.757
G2X-139.5Y0.I28.17J8.757 
X-138.17Y8.757I29.5J0. 
G1X-145.582Y20.619 
G2X-147.102Y25.918I8.48J5.299
X-144.329Y32.83I10.J0. 
X-142.83Y34.329I34.329J-32.83
X-135.918Y37.102I6.912J-7.227
X-130.619Y35.582I0.J-10. 
G1X-118.757Y28.17
G2X-110.Y29.5I8.757J-28.17 
X-101.243Y28.17I0.J-29.5 
G1X-89.381Y35.582
G2X-84.082Y37.102I5.299J-8.48
X-77.17Y34.329I0.J-10. 
X-75.671Y32.83I-32.83J-34.329
X-72.898Y25.918I-7.227J-6.912
X-74.418Y20.619I-10.J0.
G1X-81.83Y8.757
G2X-80.5Y0.I-28.17J-8.757
X-81.83Y-8.757I-29.5J0.
G1X-74.418Y-20.619 
G2X-72.898Y-25.918I-8.48J-5.299
X-75.671Y-32.83I-10.J0.
X-77.17Y-34.329I-34.329J32.83
X-84.082Y-37.102I-6.912J7.227
X-89.381Y-35.582I0.J10.
G3X-95.21Y-33.911I-5.829J-9.329
X-104.539Y-39.082I0.J-11.
G40D16G1X-95.21Y-44.911
G0Z120.
(-----F-kontur3-----)
X14.79Y-44.911Z120.
Z-4. 
G1Z-19.F500
G41D16G1X24.118Y-50.74 
G3X25.79Y-44.911I-9.328J5.829
X20.619Y-35.582I-11.J0.
G1X8.757Y-28.17
G2X0.Y-29.5I-8.757J28.17 
X-8.757Y-28.17I0.J29.5 
G1X-20.619Y-35.582 
G2X-25.918Y-37.102I-5.299J8.48 
X-32.83Y-34.329I0.J10. 
X-34.329Y-32.83I32.83J34.329 
X-37.102Y-25.918I7.227J6.912 
X-35.582Y-20.619I10.J0.
G1X-28.17Y-8.757 
G2X-29.5Y0.I28.17J8.757
X-28.17Y8.757I29.5J0.
G1X-35.582Y20.619
G2X-37.102Y25.918I8.48J5.299 
X-34.329Y32.83I10.J0.
X-32.83Y34.329I34.329J-32.83 
X-25.918Y37.102I6.912J-7.227 
X-20.619Y35.582I0.J-10.
G1X-8.757Y28.17
G2X0.Y29.5I8.757J-28.17
X8.757Y28.17I0.J-29.5
G1X20.619Y35.582 
G2X25.918Y37.102I5.299J-8.48 
X32.83Y34.329I0.J-10.
X34.329Y32.83I-32.83J-34.329 
X37.102Y25.918I-7.227J-6.912 
X35.582Y20.619I-10.J0. 
G1X28.17Y8.757 
G2X29.5Y0.I-28.17J-8.757 
X28.17Y-8.757I-29.5J0. 
G1X35.582Y-20.619
G2X37.102Y-25.918I-8.48J-5.299 
X34.329Y-32.83I-10.J0. 
X32.83Y-34.329I-34.329J32.83 
X25.918Y-37.102I-6.912J7.227 
X20.619Y-35.582I0.J10. 
G3X14.79Y-33.911I-5.829J-9.329 
X5.461Y-39.082I0.J-11. 
G40D16G1X14.79Y-44.911 
G0Z120.
G91G28Z0.
 
 
G54.1P10 
M11
G0G90A0. 
M10
G80G49G40
G5.1Q1 
G90G00G40G54.1P10X-316.559Y-43.433 
G43H16Z120.
(-----F-kontur6-----)
G0X-316.559Y-43.433Z120. 
M8 
Z-4.45 
G1Z-15.95F500
G41D16G1X-307.231Y-49.262
G3X-305.559Y-43.433I-9.328J5.829 
X-310.73Y-34.105I-11.J0. 
G1X-322.824Y-26.547
G2X-330.Y-27.5I-7.176J26.547 
X-337.176Y-26.547I0.J27.5
G1X-349.27Y-34.105 
G2X-354.569Y-35.624I-5.299J8.481 
X-361.49Y-32.842I0.J10.
X-362.842Y-31.49I31.49J32.842
X-365.624Y-24.569I7.218J6.921
X-364.105Y-19.27I10.J0.
G1X-356.547Y-7.176 
G2X-357.5Y0.I26.547J7.176
X-356.547Y7.176I27.5J0.
G1X-364.105Y19.27
G2X-365.624Y24.569I8.481J5.299 
X-362.842Y31.49I10.J0. 
X-361.49Y32.842I32.842J-31.49
X-354.569Y35.624I6.921J-7.218
X-349.27Y34.105I0.J-10.
G1X-337.176Y26.547 
G2X-330.Y27.5I7.176J-26.547
X-322.824Y26.547I0.J-27.5
G1X-310.73Y34.105
G2X-305.431Y35.624I5.299J-8.481
X-298.51Y32.842I0.J-10.
X-297.158Y31.49I-31.49J-32.842 
X-294.376Y24.569I-7.218J-6.921 
X-295.895Y19.27I-10.J0.
G1X-303.453Y7.176
G2X-302.5Y0.I-26.547J-7.176
X-303.453Y-7.176I-27.5J0.
G1X-295.895Y-19.27 
G2X-294.376Y-24.569I-8.481J-5.299
X-297.158Y-31.49I-10.J0. 
X-298.51Y-32.842I-32.842J31.49 
X-305.431Y-35.624I-6.921J7.218 
X-310.73Y-34.105I0.J10.
G3X-316.559Y-32.433I-5.829J-9.328
X-325.888Y-37.604I0.J-11.
G40D16G1X-316.559Y-43.433
G0Z120.
(-----F-kontur6-----)
X-206.559Y-43.433Z120. 
Z-4.45 
G1Z-15.95F500
G41D16G1X-197.231Y-49.262
G3X-195.559Y-43.433I-9.328J5.829 
X-200.73Y-34.105I-11.J0. 
G1X-212.824Y-26.547
G2X-220.Y-27.5I-7.176J26.547 
X-227.176Y-26.547I0.J27.5
G1X-239.27Y-34.105 
G2X-244.569Y-35.624I-5.299J8.481 
X-251.49Y-32.842I0.J10.
X-252.842Y-31.49I31.49J32.842
X-255.624Y-24.569I7.218J6.921
X-254.105Y-19.27I10.J0.
G1X-246.547Y-7.176 
G2X-247.5Y0.I26.547J7.176
X-246.547Y7.176I27.5J0.
G1X-254.105Y19.27
G2X-255.624Y24.569I8.481J5.299 
X-252.842Y31.49I10.J0. 
X-251.49Y32.842I32.842J-31.49
X-244.569Y35.624I6.921J-7.218
X-239.27Y34.105I0.J-10.
G1X-227.176Y26.547 
G2X-220.Y27.5I7.176J-26.547
X-212.824Y26.547I0.J-27.5
G1X-200.73Y34.105
G2X-195.431Y35.624I5.299J-8.481
X-188.51Y32.842I0.J-10.
X-187.158Y31.49I-31.49J-32.842 
X-184.376Y24.569I-7.218J-6.921 
X-185.895Y19.27I-10.J0.
G1X-193.453Y7.176
G2X-192.5Y0.I-26.547J-7.176
X-193.453Y-7.176I-27.5J0.
G1X-185.895Y-19.27 
G2X-184.376Y-24.569I-8.481J-5.299
X-187.158Y-31.49I-10.J0. 
X-188.51Y-32.842I-32.842J31.49 
X-195.431Y-35.624I-6.921J7.218 
X-200.73Y-34.105I0.J10.
G3X-206.559Y-32.433I-5.829J-9.328
X-215.888Y-37.604I0.J-11.
G40D16G1X-206.559Y-43.433
G0Z120.
(-----F-kontur6-----)
X-96.559Y-43.433Z120.
Z-4.45 
G1Z-15.95F500
G41D16G1X-87.231Y-49.262 
G3X-85.559Y-43.433I-9.328J5.829
X-90.73Y-34.105I-11.J0.
G1X-102.824Y-26.547
G2X-110.Y-27.5I-7.176J26.547 
X-117.176Y-26.547I0.J27.5
G1X-129.27Y-34.105 
G2X-134.569Y-35.624I-5.299J8.481 
X-141.49Y-32.842I0.J10.
X-142.842Y-31.49I31.49J32.842
X-145.624Y-24.569I7.218J6.921
X-144.105Y-19.27I10.J0.
G1X-136.547Y-7.176 
G2X-137.5Y0.I26.547J7.176
X-136.547Y7.176I27.5J0.
G1X-144.105Y19.27
G2X-145.624Y24.569I8.481J5.299 
X-142.842Y31.49I10.J0. 
X-141.49Y32.842I32.842J-31.49
X-134.569Y35.624I6.921J-7.218
X-129.27Y34.105I0.J-10.
G1X-117.176Y26.547 
G2X-110.Y27.5I7.176J-26.547
X-102.824Y26.547I0.J-27.5
G1X-90.73Y34.105 
G2X-85.431Y35.624I5.299J-8.481 
X-78.51Y32.842I0.J-10. 
X-77.158Y31.49I-31.49J-32.842
X-74.376Y24.569I-7.218J-6.921
X-75.895Y19.27I-10.J0. 
G1X-83.453Y7.176 
G2X-82.5Y0.I-26.547J-7.176 
X-83.453Y-7.176I-27.5J0. 
G1X-75.895Y-19.27
G2X-74.376Y-24.569I-8.481J-5.299 
X-77.158Y-31.49I-10.J0.
X-78.51Y-32.842I-32.842J31.49
X-85.431Y-35.624I-6.921J7.218
X-90.73Y-34.105I0.J10. 
G3X-96.559Y-32.433I-5.829J-9.328 
X-105.888Y-37.604I0.J-11.
G40D16G1X-96.559Y-43.433 
G0Z120.
(-----F-kontur6-----)
X13.441Y-43.433Z120. 
Z-4.45 
G1Z-15.95F500
G41D16G1X22.769Y-49.262
G3X24.441Y-43.433I-9.328J5.829 
X19.27Y-34.105I-11.J0. 
G1X7.176Y-26.547 
G2X0.Y-27.5I-7.176J26.547
X-7.176Y-26.547I0.J27.5
G1X-19.27Y-34.105
G2X-24.569Y-35.624I-5.299J8.481
X-31.49Y-32.842I0.J10. 
X-32.842Y-31.49I31.49J32.842 
X-35.624Y-24.569I7.218J6.921 
X-34.105Y-19.27I10.J0. 
G1X-26.547Y-7.176
G2X-27.5Y0.I26.547J7.176 
X-26.547Y7.176I27.5J0. 
G1X-34.105Y19.27 
G2X-35.624Y24.569I8.481J5.299
X-32.842Y31.49I10.J0.
X-31.49Y32.842I32.842J-31.49 
X-24.569Y35.624I6.921J-7.218 
X-19.27Y34.105I0.J-10. 
G1X-7.176Y26.547 
G2X0.Y27.5I7.176J-26.547 
X7.176Y26.547I0.J-27.5 
G1X19.27Y34.105
G2X24.569Y35.624I5.299J-8.481
X31.49Y32.842I0.J-10.
X32.842Y31.49I-31.49J-32.842 
X35.624Y24.569I-7.218J-6.921 
X34.105Y19.27I-10.J0.
G1X26.547Y7.176
G2X27.5Y0.I-26.547J-7.176
X26.547Y-7.176I-27.5J0.
G1X34.105Y-19.27 
G2X35.624Y-24.569I-8.481J-5.299
X32.842Y-31.49I-10.J0. 
X31.49Y-32.842I-32.842J31.49 
X24.569Y-35.624I-6.921J7.218 
X19.27Y-34.105I0.J10.
G3X13.441Y-32.433I-5.829J-9.328
X4.112Y-37.604I0.J-11. 
G40D16G1X13.441Y-43.433
G0Z120.
M5 
M9 
G5.1Q0 
G91G28Z0 
G91G28Y0 
M01
T13M6(7.5MM-PAH) 
M11
G0G90G54.1P14X24.749Y24.749A0.S2500M3
M10
G43Z150.H13T17 
G0Z5.M8
G1Z-8.F1000
M98Q10L1 
G0Z80. 
X-24.749 
G0Z5.
G1Z-8.F1000
M98Q10L1 
G0Z80. 
Y-24.749 
G0Z5.
G1Z-8.F1000
M98Q10L1 
G0Z80. 
X24.749
G0Z5.
G1Z-8.F1000
M98Q10L1 
G0Z80. 
 
G0G90G54.1P15X24.749Y24.749
G43H13Z80. 
G0Z5.
G1Z-8.F1000
M98Q10L1 
G0Z80. 
X-24.749 
G0Z5.
G1Z-8.F1000
M98Q10L1 
G0Z80. 
Y-24.749 
G0Z5.
G1Z-8.F1000
M98Q10L1 
G0Z80. 
X24.749
G0Z5.
G1Z-8.F1000
M98Q10L1 
G0Z80. 
 
G0G90G54.1P16X24.749Y24.749
G43H13Z80. 
G0Z5.
G1Z-8.F1000
M98Q10L1 
G0Z80. 
X-24.749 
G0Z5.
G1Z-8.F1000
M98Q10L1 
G0Z80. 
Y-24.749 
G0Z5.
G1Z-8.F1000
M98Q10L1 
G0Z80. 
X24.749
G0Z5.
G1Z-8.F1000
M98Q10L1 
G0Z80. 
 
G0G90G54.1P17X24.749Y24.749
G43H13Z80. 
G0Z5.
G1Z-8.F1000
M98Q10L1 
G0Z80. 
X-24.749 
G0Z5.
G1Z-8.F1000
M98Q10L1 
G0Z80. 
Y-24.749 
G0Z5.
G1Z-8.F1000
M98Q10L1 
G0Z80. 
X24.749
G0Z5.
G1Z-8.F1000
M98Q10L1 
G0Z80. 
G91G28Z0.
 
 
M11
G0G90G54.1P10X24.042Y24.042A0. 
M10
G43H13Z80. 
G0Z5.
G1Z-8.F1000
M98Q11L1 
G0Z80. 
X-24.042 
G0Z5.
G1Z-8.F1000
M98Q11L1 
G0Z80. 
Y-24.042 
G0Z5.
G1Z-8.F1000
M98Q11L1 
G0Z80. 
X24.042
G0Z5.
G1Z-8.F1000
M98Q11L1 
G0Z80. 
 
G0G90G54.1P11X24.042Y24.042A0. 
G43H13Z80. 
G0Z5.
G1Z-8.F1000
M98Q11L1 
G0Z80. 
X-24.042 
G0Z5.
G1Z-8.F1000
M98Q11L1 
G0Z80. 
Y-24.042 
G0Z5.
G1Z-8.F1000
M98Q11L1 
G0Z80. 
X24.042
G0Z5.
G1Z-8.F1000
M98Q11L1 
G0Z80. 
 
G0G90G54.1P12X24.042Y24.042A0. 
G43H13Z80. 
G0Z5.
G1Z-8.F1000
M98Q11L1 
G0Z80. 
X-24.042 
G0Z5.
G1Z-8.F1000
M98Q11L1 
G0Z80. 
Y-24.042 
G0Z5.
G1Z-8.F1000
M98Q11L1 
G0Z80. 
X24.042
G0Z5.
G1Z-8.F1000
M98Q11L1 
G0Z80. 
 
G0G90G54.1P13X24.042Y24.042A0. 
G43H13Z80. 
G0Z5.
G1Z-8.F1000
M98Q11L1 
G0Z80. 
X-24.042 
G0Z5.
G1Z-8.F1000
M98Q11L1 
G0Z80. 
Y-24.042 
G0Z5.
G1Z-8.F1000
M98Q11L1 
G0Z80. 
X24.042
G0Z5.
G1Z-8.F1000
M98Q11L1 
G0Z120.
M5 
M9 
G5.1Q0 
G91G28Z0.
G91G28Y0.
M01
T17M6( TAKIM -17- FREZE CAP 9.0 MM  T_Boyu 35.MM)
(YARICAP-4MM)
S2000M3
G80G49G40
G54.1P10 
G5.1Q1 
G0G90A0. 
G90G00G40G54.1P10X17.012Y-47.905 
G43H17Z120.T18 
(-----F-kontur8-1-----)
G0X17.012Y-47.905Z25.
M8 
Z-4.45 
G1Z-18.7F1000
G41D17G1X20.83Y-50.291F500 
X22.42Y-47.747 
G3X23.924Y-42.5I-8.396J5.247 
X19.27Y-34.105I-9.9J0. 
G1X8.934Y-27.646 
G3X6.285Y-26.887I-2.649J-4.241 
X5.318Y-26.981I0.J-5.
G2X0.Y-27.5I-5.318J26.981
X-5.318Y-26.981I0.J27.5
G3X-6.285Y-26.887I-0.967J-4.906
X-8.934Y-27.646I0.J-5. 
G1X-19.27Y-34.105
G2X-24.569Y-35.624I-5.299J8.481
X-31.49Y-32.842I0.J10. 
X-32.842Y-31.49I31.49J32.842 
X-35.624Y-24.569I7.218J6.921 
X-34.105Y-19.27I10.J0. 
G1X-27.646Y-8.934
G3X-26.887Y-6.285I-4.241J2.649 
X-26.981Y-5.318I-5.J0. 
G2X-27.5Y0.I26.981J5.318 
X-26.981Y5.318I27.5J0. 
G3X-26.887Y6.285I-4.906J0.967
X-27.646Y8.934I-5.J0.
G1X-34.105Y19.27 
G2X-35.624Y24.569I8.481J5.299
X-32.842Y31.49I10.J0.
X-31.49Y32.842I32.842J-31.49 
X-24.569Y35.624I6.921J-7.218 
X-19.27Y34.105I0.J-10. 
G1X-8.934Y27.646 
G3X-6.285Y26.887I2.649J4.241 
X-5.318Y26.981I0.J5. 
G2X0.Y27.5I5.318J-26.981 
X5.318Y26.981I0.J-27.5 
G3X6.285Y26.887I0.967J4.906
X8.934Y27.646I0.J5.
G1X19.27Y34.105
G2X24.569Y35.624I5.299J-8.481
X31.49Y32.842I0.J-10.
X32.842Y31.49I-31.49J-32.842 
X35.624Y24.569I-7.218J-6.921 
X34.105Y19.27I-10.J0.
G1X27.646Y8.934
G3X26.887Y6.285I4.241J-2.649 
X26.981Y5.318I5.J0.
G2X27.5Y0.I-26.981J-5.318
X26.981Y-5.318I-27.5J0.
G3X26.887Y-6.285I4.906J-0.967
X27.646Y-8.934I5.J0. 
G1X34.105Y-19.27 
G2X35.624Y-24.569I-8.481J-5.299
X32.842Y-31.49I-10.J0. 
X31.49Y-32.842I-32.842J31.49 
X24.569Y-35.624I-6.921J7.218 
X19.27Y-34.105I0.J10.
G3X14.024Y-32.6I-5.246J-8.395
X5.628Y-37.254I0.J-9.9 
G40D17G1X14.024Y-42.5
G0Z10. 
(-----F-kontur8-2-----)
X17.012Y-47.905Z10.
Z-4.45 
G1Z-22.2F1000
G41D17G1X20.83Y-50.291F500 
X22.42Y-47.747 
G3X23.924Y-42.5I-8.396J5.247 
X19.27Y-34.105I-9.9J0. 
G1X8.934Y-27.646 
G3X6.285Y-26.887I-2.649J-4.241 
X5.318Y-26.981I0.J-5.
G2X0.Y-27.5I-5.318J26.981
X-5.318Y-26.981I0.J27.5
G3X-6.285Y-26.887I-0.967J-4.906
X-8.934Y-27.646I0.J-5. 
G1X-19.27Y-34.105
G2X-24.569Y-35.624I-5.299J8.481
X-31.49Y-32.842I0.J10. 
X-32.842Y-31.49I31.49J32.842 
X-35.624Y-24.569I7.218J6.921 
X-34.105Y-19.27I10.J0. 
G1X-27.646Y-8.934
G3X-26.887Y-6.285I-4.241J2.649 
X-26.981Y-5.318I-5.J0. 
G2X-27.5Y0.I26.981J5.318 
X-26.981Y5.318I27.5J0. 
G3X-26.887Y6.285I-4.906J0.967
X-27.646Y8.934I-5.J0.
G1X-34.105Y19.27 
G2X-35.624Y24.569I8.481J5.299
X-32.842Y31.49I10.J0.
X-31.49Y32.842I32.842J-31.49 
X-24.569Y35.624I6.921J-7.218 
X-19.27Y34.105I0.J-10. 
G1X-8.934Y27.646 
G3X-6.285Y26.887I2.649J4.241 
X-5.318Y26.981I0.J5. 
G2X0.Y27.5I5.318J-26.981 
X5.318Y26.981I0.J-27.5 
G3X6.285Y26.887I0.967J4.906
X8.934Y27.646I0.J5.
G1X19.27Y34.105
G2X24.569Y35.624I5.299J-8.481
X31.49Y32.842I0.J-10.
X32.842Y31.49I-31.49J-32.842 
X35.624Y24.569I-7.218J-6.921 
X34.105Y19.27I-10.J0.
G1X27.646Y8.934
G3X26.887Y6.285I4.241J-2.649 
X26.981Y5.318I5.J0.
G2X27.5Y0.I-26.981J-5.318
X26.981Y-5.318I-27.5J0.
G3X26.887Y-6.285I4.906J-0.967
X27.646Y-8.934I5.J0. 
G1X34.105Y-19.27 
G2X35.624Y-24.569I-8.481J-5.299
X32.842Y-31.49I-10.J0. 
X31.49Y-32.842I-32.842J31.49 
X24.569Y-35.624I-6.921J7.218 
X19.27Y-34.105I0.J10.
G3X14.024Y-32.6I-5.246J-8.395
X5.628Y-37.254I0.J-9.9 
G40D17G1X14.024Y-42.5
G0Z120.
 
G90G00G40G54.1P11X17.012Y-47.905 
G43H17Z120.
G0X17.012Y-47.905Z25.
Z-4.45 
G1Z-18.7F1000
G41D17G1X20.83Y-50.291F500 
X22.42Y-47.747 
G3X23.924Y-42.5I-8.396J5.247 
X19.27Y-34.105I-9.9J0. 
G1X8.934Y-27.646 
G3X6.285Y-26.887I-2.649J-4.241 
X5.318Y-26.981I0.J-5.
G2X0.Y-27.5I-5.318J26.981
X-5.318Y-26.981I0.J27.5
G3X-6.285Y-26.887I-0.967J-4.906
X-8.934Y-27.646I0.J-5. 
G1X-19.27Y-34.105
G2X-24.569Y-35.624I-5.299J8.481
X-31.49Y-32.842I0.J10. 
X-32.842Y-31.49I31.49J32.842 
X-35.624Y-24.569I7.218J6.921 
X-34.105Y-19.27I10.J0. 
G1X-27.646Y-8.934
G3X-26.887Y-6.285I-4.241J2.649 
X-26.981Y-5.318I-5.J0. 
G2X-27.5Y0.I26.981J5.318 
X-26.981Y5.318I27.5J0. 
G3X-26.887Y6.285I-4.906J0.967
X-27.646Y8.934I-5.J0.
G1X-34.105Y19.27 
G2X-35.624Y24.569I8.481J5.299
X-32.842Y31.49I10.J0.
X-31.49Y32.842I32.842J-31.49 
X-24.569Y35.624I6.921J-7.218 
X-19.27Y34.105I0.J-10. 
G1X-8.934Y27.646 
G3X-6.285Y26.887I2.649J4.241 
X-5.318Y26.981I0.J5. 
G2X0.Y27.5I5.318J-26.981 
X5.318Y26.981I0.J-27.5 
G3X6.285Y26.887I0.967J4.906
X8.934Y27.646I0.J5.
G1X19.27Y34.105
G2X24.569Y35.624I5.299J-8.481
X31.49Y32.842I0.J-10.
X32.842Y31.49I-31.49J-32.842 
X35.624Y24.569I-7.218J-6.921 
X34.105Y19.27I-10.J0.
G1X27.646Y8.934
G3X26.887Y6.285I4.241J-2.649 
X26.981Y5.318I5.J0.
G2X27.5Y0.I-26.981J-5.318
X26.981Y-5.318I-27.5J0.
G3X26.887Y-6.285I4.906J-0.967
X27.646Y-8.934I5.J0. 
G1X34.105Y-19.27 
G2X35.624Y-24.569I-8.481J-5.299
X32.842Y-31.49I-10.J0. 
X31.49Y-32.842I-32.842J31.49 
X24.569Y-35.624I-6.921J7.218 
X19.27Y-34.105I0.J10.
G3X14.024Y-32.6I-5.246J-8.395
X5.628Y-37.254I0.J-9.9 
G40D17G1X14.024Y-42.5
G0Z10. 
X17.012Y-47.905Z10.
Z-4.45 
G1Z-22.2F1000
G41D17G1X20.83Y-50.291F500 
X22.42Y-47.747 
G3X23.924Y-42.5I-8.396J5.247 
X19.27Y-34.105I-9.9J0. 
G1X8.934Y-27.646 
G3X6.285Y-26.887I-2.649J-4.241 
X5.318Y-26.981I0.J-5.
G2X0.Y-27.5I-5.318J26.981
X-5.318Y-26.981I0.J27.5
G3X-6.285Y-26.887I-0.967J-4.906
X-8.934Y-27.646I0.J-5. 
G1X-19.27Y-34.105
G2X-24.569Y-35.624I-5.299J8.481
X-31.49Y-32.842I0.J10. 
X-32.842Y-31.49I31.49J32.842 
X-35.624Y-24.569I7.218J6.921 
X-34.105Y-19.27I10.J0. 
G1X-27.646Y-8.934
G3X-26.887Y-6.285I-4.241J2.649 
X-26.981Y-5.318I-5.J0. 
G2X-27.5Y0.I26.981J5.318 
X-26.981Y5.318I27.5J0. 
G3X-26.887Y6.285I-4.906J0.967
X-27.646Y8.934I-5.J0.
G1X-34.105Y19.27 
G2X-35.624Y24.569I8.481J5.299
X-32.842Y31.49I10.J0.
X-31.49Y32.842I32.842J-31.49 
X-24.569Y35.624I6.921J-7.218 
X-19.27Y34.105I0.J-10. 
G1X-8.934Y27.646 
G3X-6.285Y26.887I2.649J4.241 
X-5.318Y26.981I0.J5. 
G2X0.Y27.5I5.318J-26.981 
X5.318Y26.981I0.J-27.5 
G3X6.285Y26.887I0.967J4.906
X8.934Y27.646I0.J5.
G1X19.27Y34.105
G2X24.569Y35.624I5.299J-8.481
X31.49Y32.842I0.J-10.
X32.842Y31.49I-31.49J-32.842 
X35.624Y24.569I-7.218J-6.921 
X34.105Y19.27I-10.J0.
G1X27.646Y8.934
G3X26.887Y6.285I4.241J-2.649 
X26.981Y5.318I5.J0.
G2X27.5Y0.I-26.981J-5.318
X26.981Y-5.318I-27.5J0.
G3X26.887Y-6.285I4.906J-0.967
X27.646Y-8.934I5.J0. 
G1X34.105Y-19.27 
G2X35.624Y-24.569I-8.481J-5.299
X32.842Y-31.49I-10.J0. 
X31.49Y-32.842I-32.842J31.49 
X24.569Y-35.624I-6.921J7.218 
X19.27Y-34.105I0.J10.
G3X14.024Y-32.6I-5.246J-8.395
X5.628Y-37.254I0.J-9.9 
G40D17G1X14.024Y-42.5
G0Z120.
 
G90G00G40G54.1P12X17.012Y-47.905 
G43H17Z120.
G0X17.012Y-47.905Z25.
Z-4.45 
G1Z-18.7F1000
G41D17G1X20.83Y-50.291F500 
X22.42Y-47.747 
G3X23.924Y-42.5I-8.396J5.247 
X19.27Y-34.105I-9.9J0. 
G1X8.934Y-27.646 
G3X6.285Y-26.887I-2.649J-4.241 
X5.318Y-26.981I0.J-5.
G2X0.Y-27.5I-5.318J26.981
X-5.318Y-26.981I0.J27.5
G3X-6.285Y-26.887I-0.967J-4.906
X-8.934Y-27.646I0.J-5. 
G1X-19.27Y-34.105
G2X-24.569Y-35.624I-5.299J8.481
X-31.49Y-32.842I0.J10. 
X-32.842Y-31.49I31.49J32.842 
X-35.624Y-24.569I7.218J6.921 
X-34.105Y-19.27I10.J0. 
G1X-27.646Y-8.934
G3X-26.887Y-6.285I-4.241J2.649 
X-26.981Y-5.318I-5.J0. 
G2X-27.5Y0.I26.981J5.318 
X-26.981Y5.318I27.5J0. 
G3X-26.887Y6.285I-4.906J0.967
X-27.646Y8.934I-5.J0.
G1X-34.105Y19.27 
G2X-35.624Y24.569I8.481J5.299
X-32.842Y31.49I10.J0.
X-31.49Y32.842I32.842J-31.49 
X-24.569Y35.624I6.921J-7.218 
X-19.27Y34.105I0.J-10. 
G1X-8.934Y27.646 
G3X-6.285Y26.887I2.649J4.241 
X-5.318Y26.981I0.J5. 
G2X0.Y27.5I5.318J-26.981 
X5.318Y26.981I0.J-27.5 
G3X6.285Y26.887I0.967J4.906
X8.934Y27.646I0.J5.
G1X19.27Y34.105
G2X24.569Y35.624I5.299J-8.481
X31.49Y32.842I0.J-10.
X32.842Y31.49I-31.49J-32.842 
X35.624Y24.569I-7.218J-6.921 
X34.105Y19.27I-10.J0.
G1X27.646Y8.934
G3X26.887Y6.285I4.241J-2.649 
X26.981Y5.318I5.J0.
G2X27.5Y0.I-26.981J-5.318
X26.981Y-5.318I-27.5J0.
G3X26.887Y-6.285I4.906J-0.967
X27.646Y-8.934I5.J0. 
G1X34.105Y-19.27 
G2X35.624Y-24.569I-8.481J-5.299
X32.842Y-31.49I-10.J0. 
X31.49Y-32.842I-32.842J31.49 
X24.569Y-35.624I-6.921J7.218 
X19.27Y-34.105I0.J10.
G3X14.024Y-32.6I-5.246J-8.395
X5.628Y-37.254I0.J-9.9 
G40D17G1X14.024Y-42.5
G0Z10. 
X17.012Y-47.905Z10.
Z-4.45 
G1Z-22.2F1000
G41D17G1X20.83Y-50.291F500 
X22.42Y-47.747 
G3X23.924Y-42.5I-8.396J5.247 
X19.27Y-34.105I-9.9J0. 
G1X8.934Y-27.646 
G3X6.285Y-26.887I-2.649J-4.241 
X5.318Y-26.981I0.J-5.
G2X0.Y-27.5I-5.318J26.981
X-5.318Y-26.981I0.J27.5
G3X-6.285Y-26.887I-0.967J-4.906
X-8.934Y-27.646I0.J-5. 
G1X-19.27Y-34.105
G2X-24.569Y-35.624I-5.299J8.481
X-31.49Y-32.842I0.J10. 
X-32.842Y-31.49I31.49J32.842 
X-35.624Y-24.569I7.218J6.921 
X-34.105Y-19.27I10.J0. 
G1X-27.646Y-8.934
G3X-26.887Y-6.285I-4.241J2.649 
X-26.981Y-5.318I-5.J0. 
G2X-27.5Y0.I26.981J5.318 
X-26.981Y5.318I27.5J0. 
G3X-26.887Y6.285I-4.906J0.967
X-27.646Y8.934I-5.J0.
G1X-34.105Y19.27 
G2X-35.624Y24.569I8.481J5.299
X-32.842Y31.49I10.J0.
X-31.49Y32.842I32.842J-31.49 
X-24.569Y35.624I6.921J-7.218 
X-19.27Y34.105I0.J-10. 
G1X-8.934Y27.646 
G3X-6.285Y26.887I2.649J4.241 
X-5.318Y26.981I0.J5. 
G2X0.Y27.5I5.318J-26.981 
X5.318Y26.981I0.J-27.5 
G3X6.285Y26.887I0.967J4.906
X8.934Y27.646I0.J5.
G1X19.27Y34.105
G2X24.569Y35.624I5.299J-8.481
X31.49Y32.842I0.J-10.
X32.842Y31.49I-31.49J-32.842 
X35.624Y24.569I-7.218J-6.921 
X34.105Y19.27I-10.J0.
G1X27.646Y8.934
G3X26.887Y6.285I4.241J-2.649 
X26.981Y5.318I5.J0.
G2X27.5Y0.I-26.981J-5.318
X26.981Y-5.318I-27.5J0.
G3X26.887Y-6.285I4.906J-0.967
X27.646Y-8.934I5.J0. 
G1X34.105Y-19.27 
G2X35.624Y-24.569I-8.481J-5.299
X32.842Y-31.49I-10.J0. 
X31.49Y-32.842I-32.842J31.49 
X24.569Y-35.624I-6.921J7.218 
X19.27Y-34.105I0.J10.
G3X14.024Y-32.6I-5.246J-8.395
X5.628Y-37.254I0.J-9.9 
G40D17G1X14.024Y-42.5
G0Z120.
 
G90G00G40G54.1P13X17.012Y-47.905 
G43H17Z120.
G0X17.012Y-47.905Z25.
Z-4.45 
G1Z-18.7F1000
G41D17G1X20.83Y-50.291F500 
X22.42Y-47.747 
G3X23.924Y-42.5I-8.396J5.247 
X19.27Y-34.105I-9.9J0. 
G1X8.934Y-27.646 
G3X6.285Y-26.887I-2.649J-4.241 
X5.318Y-26.981I0.J-5.
G2X0.Y-27.5I-5.318J26.981
X-5.318Y-26.981I0.J27.5
G3X-6.285Y-26.887I-0.967J-4.906
X-8.934Y-27.646I0.J-5. 
G1X-19.27Y-34.105
G2X-24.569Y-35.624I-5.299J8.481
X-31.49Y-32.842I0.J10. 
X-32.842Y-31.49I31.49J32.842 
X-35.624Y-24.569I7.218J6.921 
X-34.105Y-19.27I10.J0. 
G1X-27.646Y-8.934
G3X-26.887Y-6.285I-4.241J2.649 
X-26.981Y-5.318I-5.J0. 
G2X-27.5Y0.I26.981J5.318 
X-26.981Y5.318I27.5J0. 
G3X-26.887Y6.285I-4.906J0.967
X-27.646Y8.934I-5.J0.
G1X-34.105Y19.27 
G2X-35.624Y24.569I8.481J5.299
X-32.842Y31.49I10.J0.
X-31.49Y32.842I32.842J-31.49 
X-24.569Y35.624I6.921J-7.218 
X-19.27Y34.105I0.J-10. 
G1X-8.934Y27.646 
G3X-6.285Y26.887I2.649J4.241 
X-5.318Y26.981I0.J5. 
G2X0.Y27.5I5.318J-26.981 
X5.318Y26.981I0.J-27.5 
G3X6.285Y26.887I0.967J4.906
X8.934Y27.646I0.J5.
G1X19.27Y34.105
G2X24.569Y35.624I5.299J-8.481
X31.49Y32.842I0.J-10.
X32.842Y31.49I-31.49J-32.842 
X35.624Y24.569I-7.218J-6.921 
X34.105Y19.27I-10.J0.
G1X27.646Y8.934
G3X26.887Y6.285I4.241J-2.649 
X26.981Y5.318I5.J0.
G2X27.5Y0.I-26.981J-5.318
X26.981Y-5.318I-27.5J0.
G3X26.887Y-6.285I4.906J-0.967
X27.646Y-8.934I5.J0. 
G1X34.105Y-19.27 
G2X35.624Y-24.569I-8.481J-5.299
X32.842Y-31.49I-10.J0. 
X31.49Y-32.842I-32.842J31.49 
X24.569Y-35.624I-6.921J7.218 
X19.27Y-34.105I0.J10.
G3X14.024Y-32.6I-5.246J-8.395
X5.628Y-37.254I0.J-9.9 
G40D17G1X14.024Y-42.5
G0Z10. 
X17.012Y-47.905Z10.
Z-4.45 
G1Z-22.2F1000
G41D17G1X20.83Y-50.291F500 
X22.42Y-47.747 
G3X23.924Y-42.5I-8.396J5.247 
X19.27Y-34.105I-9.9J0. 
G1X8.934Y-27.646 
G3X6.285Y-26.887I-2.649J-4.241 
X5.318Y-26.981I0.J-5.
G2X0.Y-27.5I-5.318J26.981
X-5.318Y-26.981I0.J27.5
G3X-6.285Y-26.887I-0.967J-4.906
X-8.934Y-27.646I0.J-5. 
G1X-19.27Y-34.105
G2X-24.569Y-35.624I-5.299J8.481
X-31.49Y-32.842I0.J10. 
X-32.842Y-31.49I31.49J32.842 
X-35.624Y-24.569I7.218J6.921 
X-34.105Y-19.27I10.J0. 
G1X-27.646Y-8.934
G3X-26.887Y-6.285I-4.241J2.649 
X-26.981Y-5.318I-5.J0. 
G2X-27.5Y0.I26.981J5.318 
X-26.981Y5.318I27.5J0. 
G3X-26.887Y6.285I-4.906J0.967
X-27.646Y8.934I-5.J0.
G1X-34.105Y19.27 
G2X-35.624Y24.569I8.481J5.299
X-32.842Y31.49I10.J0.
X-31.49Y32.842I32.842J-31.49 
X-24.569Y35.624I6.921J-7.218 
X-19.27Y34.105I0.J-10. 
G1X-8.934Y27.646 
G3X-6.285Y26.887I2.649J4.241 
X-5.318Y26.981I0.J5. 
G2X0.Y27.5I5.318J-26.981 
X5.318Y26.981I0.J-27.5 
G3X6.285Y26.887I0.967J4.906
X8.934Y27.646I0.J5.
G1X19.27Y34.105
G2X24.569Y35.624I5.299J-8.481
X31.49Y32.842I0.J-10.
X32.842Y31.49I-31.49J-32.842 
X35.624Y24.569I-7.218J-6.921 
X34.105Y19.27I-10.J0.
G1X27.646Y8.934
G3X26.887Y6.285I4.241J-2.649 
X26.981Y5.318I5.J0.
G2X27.5Y0.I-26.981J-5.318
X26.981Y-5.318I-27.5J0.
G3X26.887Y-6.285I4.906J-0.967
X27.646Y-8.934I5.J0. 
G1X34.105Y-19.27 
G2X35.624Y-24.569I-8.481J-5.299
X32.842Y-31.49I-10.J0. 
X31.49Y-32.842I-32.842J31.49 
X24.569Y-35.624I-6.921J7.218 
X19.27Y-34.105I0.J10.
G3X14.024Y-32.6I-5.246J-8.395
X5.628Y-37.254I0.J-9.9 
G40D17G1X14.024Y-42.5
G0Z120.
G5.1Q0 
G91G28Z0.
 
 
G80G49G40
G54.1P14 
G5.1Q1 
M11
G0G90A0. 
M10
G90G00G40G54.1P14X15.373Y-43.978 
G43H17Z120.
(-----F-kontur2-1-----)
G0X15.373Y-43.978Z80.
M8 
Z-4. 
G1Z-21.75F1000 
G41D17G1X23.768Y-49.224F500
G3X25.273Y-43.978I-8.395J5.246 
X20.619Y-35.582I-9.9J0.
G1X10.611Y-29.329
G3X7.961Y-28.569I-2.65J-4.24 
X6.808Y-28.704I0.J-5.
G2X0.Y-29.5I-6.808J28.704
X-6.808Y-28.704I0.J29.5
G3X-7.961Y-28.569I-1.153J-4.865
X-10.611Y-29.329I0.J-5.
G1X-20.619Y-35.582 
G2X-25.918Y-37.102I-5.299J8.48 
X-32.83Y-34.329I0.J10. 
X-34.329Y-32.83I32.83J34.329 
X-37.102Y-25.918I7.227J6.912 
X-35.582Y-20.619I10.J0.
G1X-29.329Y-10.611 
G3X-28.569Y-7.961I-4.24J2.65 
X-28.704Y-6.808I-5.J0. 
G2X-29.5Y0.I28.704J6.808 
X-28.704Y6.808I29.5J0. 
G3X-28.569Y7.961I-4.865J1.153
X-29.329Y10.611I-5.J0. 
G1X-35.582Y20.619
G2X-37.102Y25.918I8.48J5.299 
X-34.329Y32.83I10.J0.
X-32.83Y34.329I34.329J-32.83 
X-25.918Y37.102I6.912J-7.227 
X-20.619Y35.582I0.J-10.
G1X-10.611Y29.329
G3X-7.961Y28.569I2.65J4.24 
X-6.808Y28.704I0.J5. 
G2X0.Y29.5I6.808J-28.704 
X6.808Y28.704I0.J-29.5 
G3X7.961Y28.569I1.153J4.865
X10.611Y29.329I0.J5. 
G1X20.619Y35.582 
G2X25.918Y37.102I5.299J-8.48 
X32.83Y34.329I0.J-10.
X34.329Y32.83I-32.83J-34.329 
X37.102Y25.918I-7.227J-6.912 
X35.582Y20.619I-10.J0. 
G1X29.329Y10.611 
G3X28.569Y7.961I4.24J-2.65 
X28.704Y6.808I5.J0.
G2X29.5Y0.I-28.704J-6.808
X28.704Y-6.808I-29.5J0.
G3X28.569Y-7.961I4.865J-1.153
X29.329Y-10.611I5.J0.
G1X35.582Y-20.619
G2X37.102Y-25.918I-8.48J-5.299 
X34.329Y-32.83I-10.J0. 
X32.83Y-34.329I-34.329J32.83 
X25.918Y-37.102I-6.912J7.227 
X20.619Y-35.582I0.J10. 
G3X15.373Y-34.078I-5.246J-8.396
X6.977Y-38.732I0.J-9.9 
G40D17G1X15.373Y-43.978
G0Z120.
 
G90G00G40G54.1P15X15.373Y-43.978 
G43H17Z120.
G0X15.373Y-43.978Z120. 
Z-4. 
G1Z-21.75F1000 
G41D17G1X23.768Y-49.224F500
G3X25.273Y-43.978I-8.395J5.246 
X20.619Y-35.582I-9.9J0.
G1X10.611Y-29.329
G3X7.961Y-28.569I-2.65J-4.24 
X6.808Y-28.704I0.J-5.
G2X0.Y-29.5I-6.808J28.704
X-6.808Y-28.704I0.J29.5
G3X-7.961Y-28.569I-1.153J-4.865
X-10.611Y-29.329I0.J-5.
G1X-20.619Y-35.582 
G2X-25.918Y-37.102I-5.299J8.48 
X-32.83Y-34.329I0.J10. 
X-34.329Y-32.83I32.83J34.329 
X-37.102Y-25.918I7.227J6.912 
X-35.582Y-20.619I10.J0.
G1X-29.329Y-10.611 
G3X-28.569Y-7.961I-4.24J2.65 
X-28.704Y-6.808I-5.J0. 
G2X-29.5Y0.I28.704J6.808 
X-28.704Y6.808I29.5J0. 
G3X-28.569Y7.961I-4.865J1.153
X-29.329Y10.611I-5.J0. 
G1X-35.582Y20.619
G2X-37.102Y25.918I8.48J5.299 
X-34.329Y32.83I10.J0.
X-32.83Y34.329I34.329J-32.83 
X-25.918Y37.102I6.912J-7.227 
X-20.619Y35.582I0.J-10.
G1X-10.611Y29.329
G3X-7.961Y28.569I2.65J4.24 
X-6.808Y28.704I0.J5. 
G2X0.Y29.5I6.808J-28.704 
X6.808Y28.704I0.J-29.5 
G3X7.961Y28.569I1.153J4.865
X10.611Y29.329I0.J5. 
G1X20.619Y35.582 
G2X25.918Y37.102I5.299J-8.48 
X32.83Y34.329I0.J-10.
X34.329Y32.83I-32.83J-34.329 
X37.102Y25.918I-7.227J-6.912 
X35.582Y20.619I-10.J0. 
G1X29.329Y10.611 
G3X28.569Y7.961I4.24J-2.65 
X28.704Y6.808I5.J0.
G2X29.5Y0.I-28.704J-6.808
X28.704Y-6.808I-29.5J0.
G3X28.569Y-7.961I4.865J-1.153
X29.329Y-10.611I5.J0.
G1X35.582Y-20.619
G2X37.102Y-25.918I-8.48J-5.299 
X34.329Y-32.83I-10.J0. 
X32.83Y-34.329I-34.329J32.83 
X25.918Y-37.102I-6.912J7.227 
X20.619Y-35.582I0.J10. 
G3X15.373Y-34.078I-5.246J-8.396
X6.977Y-38.732I0.J-9.9 
G40D17G1X15.373Y-43.978
G0Z120.
 
G90G00G40G54.1P16X15.373Y-43.978 
G43H17Z120.
G0X15.373Y-43.978Z120. 
Z-4. 
G1Z-21.75F1000 
G41D17G1X23.768Y-49.224F500
G3X25.273Y-43.978I-8.395J5.246 
X20.619Y-35.582I-9.9J0.
G1X10.611Y-29.329
G3X7.961Y-28.569I-2.65J-4.24 
X6.808Y-28.704I0.J-5.
G2X0.Y-29.5I-6.808J28.704
X-6.808Y-28.704I0.J29.5
G3X-7.961Y-28.569I-1.153J-4.865
X-10.611Y-29.329I0.J-5.
G1X-20.619Y-35.582 
G2X-25.918Y-37.102I-5.299J8.48 
X-32.83Y-34.329I0.J10. 
X-34.329Y-32.83I32.83J34.329 
X-37.102Y-25.918I7.227J6.912 
X-35.582Y-20.619I10.J0.
G1X-29.329Y-10.611 
G3X-28.569Y-7.961I-4.24J2.65 
X-28.704Y-6.808I-5.J0. 
G2X-29.5Y0.I28.704J6.808 
X-28.704Y6.808I29.5J0. 
G3X-28.569Y7.961I-4.865J1.153
X-29.329Y10.611I-5.J0. 
G1X-35.582Y20.619
G2X-37.102Y25.918I8.48J5.299 
X-34.329Y32.83I10.J0.
X-32.83Y34.329I34.329J-32.83 
X-25.918Y37.102I6.912J-7.227 
X-20.619Y35.582I0.J-10.
G1X-10.611Y29.329
G3X-7.961Y28.569I2.65J4.24 
X-6.808Y28.704I0.J5. 
G2X0.Y29.5I6.808J-28.704 
X6.808Y28.704I0.J-29.5 
G3X7.961Y28.569I1.153J4.865
X10.611Y29.329I0.J5. 
G1X20.619Y35.582 
G2X25.918Y37.102I5.299J-8.48 
X32.83Y34.329I0.J-10.
X34.329Y32.83I-32.83J-34.329 
X37.102Y25.918I-7.227J-6.912 
X35.582Y20.619I-10.J0. 
G1X29.329Y10.611 
G3X28.569Y7.961I4.24J-2.65 
X28.704Y6.808I5.J0.
G2X29.5Y0.I-28.704J-6.808
X28.704Y-6.808I-29.5J0.
G3X28.569Y-7.961I4.865J-1.153
X29.329Y-10.611I5.J0.
G1X35.582Y-20.619
G2X37.102Y-25.918I-8.48J-5.299 
X34.329Y-32.83I-10.J0. 
X32.83Y-34.329I-34.329J32.83 
X25.918Y-37.102I-6.912J7.227 
X20.619Y-35.582I0.J10. 
G3X15.373Y-34.078I-5.246J-8.396
X6.977Y-38.732I0.J-9.9 
G40D17G1X15.373Y-43.978
G0Z120.
 
G90G00G40G54.1P17X15.373Y-43.978 
G43H17Z120.
G0X15.373Y-43.978Z120. 
Z-4. 
G1Z-21.75F1000 
G41D17G1X23.768Y-49.224F500
G3X25.273Y-43.978I-8.395J5.246 
X20.619Y-35.582I-9.9J0.
G1X10.611Y-29.329
G3X7.961Y-28.569I-2.65J-4.24 
X6.808Y-28.704I0.J-5.
G2X0.Y-29.5I-6.808J28.704
X-6.808Y-28.704I0.J29.5
G3X-7.961Y-28.569I-1.153J-4.865
X-10.611Y-29.329I0.J-5.
G1X-20.619Y-35.582 
G2X-25.918Y-37.102I-5.299J8.48 
X-32.83Y-34.329I0.J10. 
X-34.329Y-32.83I32.83J34.329 
X-37.102Y-25.918I7.227J6.912 
X-35.582Y-20.619I10.J0.
G1X-29.329Y-10.611 
G3X-28.569Y-7.961I-4.24J2.65 
X-28.704Y-6.808I-5.J0. 
G2X-29.5Y0.I28.704J6.808 
X-28.704Y6.808I29.5J0. 
G3X-28.569Y7.961I-4.865J1.153
X-29.329Y10.611I-5.J0. 
G1X-35.582Y20.619
G2X-37.102Y25.918I8.48J5.299 
X-34.329Y32.83I10.J0.
X-32.83Y34.329I34.329J-32.83 
X-25.918Y37.102I6.912J-7.227 
X-20.619Y35.582I0.J-10.
G1X-10.611Y29.329
G3X-7.961Y28.569I2.65J4.24 
X-6.808Y28.704I0.J5. 
G2X0.Y29.5I6.808J-28.704 
X6.808Y28.704I0.J-29.5 
G3X7.961Y28.569I1.153J4.865
X10.611Y29.329I0.J5. 
G1X20.619Y35.582 
G2X25.918Y37.102I5.299J-8.48 
X32.83Y34.329I0.J-10.
X34.329Y32.83I-32.83J-34.329 
X37.102Y25.918I-7.227J-6.912 
X35.582Y20.619I-10.J0. 
G1X29.329Y10.611 
G3X28.569Y7.961I4.24J-2.65 
X28.704Y6.808I5.J0.
G2X29.5Y0.I-28.704J-6.808
X28.704Y-6.808I-29.5J0.
G3X28.569Y-7.961I4.865J-1.153
X29.329Y-10.611I5.J0.
G1X35.582Y-20.619
G2X37.102Y-25.918I-8.48J-5.299 
X34.329Y-32.83I-10.J0. 
X32.83Y-34.329I-34.329J32.83 
X25.918Y-37.102I-6.912J7.227 
X20.619Y-35.582I0.J10. 
G3X15.373Y-34.078I-5.246J-8.396
X6.977Y-38.732I0.J-9.9 
G40D17G1X15.373Y-43.978
G0Z120.
M5 
M9 
G5.1Q0 
G91G28Z0 
G91G28Y0 
M01
T18M6(M10-KLAVUZ)
G0G90G54.1P14X24.749Y24.749A0.S100M3 
M10
G43Z100.H18T12 
M8 
G95
M29S100
G98G84Z-27.R-4.F1.5
X-24.749 
Y-24.749 
X24.749
G80
G94
 
G0G90G54.1P15X24.749Y24.749S100M3
G43Z100.H18
G95
M29S100
G98G84Z-27.R-4.F1.5
X-24.749 
Y-24.749 
X24.749
G80
G94
 
G0G90G54.1P16X24.749Y24.749S100M3
G43Z100.H18
G95
M29S100
G98G84Z-27.R-4.F1.5
X-24.749 
Y-24.749 
X24.749
G80
G94
 
G0G90G54.1P17X24.749Y24.749S100M3
G43Z100.H18
G95
M29S100
G98G84Z-27.R-4.F1.5
X-24.749 
Y-24.749 
X24.749
G80
G94
M9 
M5 
G91G28Z0.
G0G90G54.1P16X55.
G91G28Y0.
M11
T12M6
T10
M30
 
 
N10
G91G1X3.1F120
G2I-3.1F350
G91G1X-3.1F1000
G90
M99
 
 
N11
G91G1X3.F120 
G2I-3.F500 
G91G1X-3.F1000 
G90
M99
 
 
 
 
 
( TAKIM -15- KLAVUZ M4.0 ADIM  0.7 MM T_Boyu 33.MM)
G90G80G49G40 
G54.1P18 
T15M6( TAKIM -15- KLAVUZ M4.0 ADIM  0.7 MM T_Boyu 33.MM) 
S130M3 
G80G49G40
G90G00G40G54.1P18X0.Y24.6
G43H15Z120.
(-----D-matkap5-----)
G0X0.Y24.6Z99. 
M8 
M29S130
G98G84Z-12.R2.F91. 
Y39.6
G80
 
S130M3 
G90G00G40G54.1P19X0.Y24.6
G43H15Z99. 
(-----D-matkap5-----)
G0X0.Y24.6Z99. 
M29S130
G98G84Z-12.R2.F91. 
Y39.6
G80
 
S130M3 
G90G00G40G54.1P20X0.Y24.6
G43H15Z99. 
(-----D-matkap5-----)
G0X0.Y24.6Z99. 
M29S130
G98G84Z-12.R2.F91. 
Y39.6
G80
 
S130M3 
G90G00G40G54.1P21X0.Y24.6
G43H15Z99. 
(-----D-matkap5-----)
G0X0.Y24.6Z99. 
M29S130
G98G84Z-12.R2.F91. 
Y39.6
G80
M5 
M9 
G5.1Q0 
G91G28Z0 
G91G28Y0 
M00
%