%
O0013(FQK-213010-OPR1) 
( TEKYAZ POST) 
( PARCA ISMI: 213010_MILLTURNFULL) 
( Tarih     : 13-JUL-2023) 
( Stok Tipi :SILINDIR--CAP :91.mm UZUNLUK :60.mm ) 
G0G28U0
N1 
( TAKIM -1--WNMG 080408 )
T0101
M34(Torna Modu Aktif)
G50S1500 
G96G99S230M3P11
G4X3.
G18
M8 
(-----FT-kontur-----)
G0X95.Z3.
Z0.2 
G1X-1.6F0.15 
Z0.713 
G0Z2.2 
X95. 
(-----TR-turn-on-solid3-----)
X95.Z2.2 
X87.202
G1Z-34.9F0.2 
X91. 
X91.562Z-34.872
G0Z2.2 
X82.388
G1Z-2.8
X85.6
G3X87.2Z-3.6R0.8 
G1X87.6
G0Z2.2 
X77.574
G1Z-2.8
X82.388
X82.788Z-2.6 
G0Z2.2 
X72.762
G1Z-2.8
X77.574
X77.974Z-2.6 
G0Z2.2 
X67.95 
G1Z-2.8
X72.762
X73.162Z-2.6 
G0Z2.2 
X63.138
G1Z-2.8
X67.95 
X68.35Z-2.6
G0Z2.2 
X58.326
G1Z-2.8
X63.138
X63.538Z-2.6 
G0Z2.2 
X53.512
G1Z-2.8
X58.326
X58.726Z-2.6 
G0Z2.2 
X48.702
G1Z-2.8
X53.512
X53.912Z-2.6 
G0Z2.2 
X48.1
G1X46.1
Z0.2 
G3X48.7Z-1.1R1.3 
G1X48.702Z-2.8 
X49.102Z-2.6 
X51.458Z-1.421 
G0Z2.2 
X95. 
M9 
G0G28U0
G0Z220.
M01
N2 
( TAKIM -5-- ) 
T0505
M34(Torna Modu Aktif)
G97G99S600M3P11
G18
M8 
(-----DRILL-----)
G0X95.Z2.2 
X0.
Z2.
G83Z-58.R0F0.07
G0Z2.2 
X95. 
M9 
G0G28U0
G0Z120.
M01
N3 
( TAKIM -3-- ) 
T0303
M34(Torna Modu Aktif)
G50S1200 
G96G99S150M3P11
G18
M8 
(-----TR-kontur9-----) 
G0X95.Z2.2 
Z-19.9 
X90. 
G75R0.1
G75X75.Z-19.9Q1000P0250F0.15 
G0X90. 
Z-21.
G1X76.F0.15
G75R0.1
G75X65.Z-21.Q1000P0250F0.15
G0X90. 
Z-19.9 
G1X66.F0.15
G75R0.1
G75X59.Z-19.9Q1000P0250F0.15 
G0X90. 
Z-21.
G1X66.F0.15
G1X59.F0.1 
G0X95. 
Z-32.1 
 
X90. 
G75R0.1
G75X75.Z-32.1Q1000P0250F0.15 
G0X90. 
Z-31.
G1X76.F0.15
G75R0.1
G75X65.Z-31.Q1000P0250F0.15
G0X90. 
Z-32.1 
G1X66.F0.15
G75R0.1
G75X59.Z-32.1Q1000P0250F0.15 
G0X90. 
Z-31.
G1X66.F0.15
G1X59.F0.1 
G0X95. 
 
X95. 
Z-20.
X90.992
G1X84.762F0.3
Z-32.
X87.2
X87.6Z-31.8
X85.162
X84.762Z-32. 
X82.324
Z-20.
X84.762
X85.162Z-20.2
X82.724
X82.324Z-20. 
X79.884
Z-32.
X82.324
X82.724Z-31.8
X80.284
X79.884Z-32. 
X77.446
Z-20.
X79.884
X80.284Z-20.2
X77.846
X77.446Z-20. 
X75.008
Z-32.
X77.446
X77.846Z-31.8
X75.408
X75.008Z-32. 
X72.57 
Z-20.
X75.008
X75.408Z-20.2
X72.97 
X72.57Z-20.
X70.13 
Z-32.
X72.57 
X72.97Z-31.8 
X70.53 
X70.13Z-32.
X67.692
Z-20.
X70.13 
X70.53Z-20.2 
X68.092
X67.692Z-20. 
X65.254
Z-32.
X67.692
X68.092Z-31.8
X65.654
X65.254Z-32. 
X62.816
Z-20.
X65.254
X65.654Z-20.2
X63.216
X62.816Z-20. 
X60.376
Z-32.
X62.816
X63.216Z-31.8
X60.776
X60.376Z-32. 
X58.9F0.1
G3X57.938Z-31.931R1.7
G1Z-20.069 
G3X58.9Z-20.R1.7 
G1X60.376
X60.776Z-20.2
G0Z-20.142 
G1X60.376
X57.938Z-20.069
G2X55.5Z-21.7R1.7
G1Z-30.3 
G2X57.938Z-31.931R1.7
G1X58.338Z-31.731
X59.48Z-30.01F0.1
G0X91.2
Z-17.16
X91.196
G1X86.F0.1 
G3X82.4Z-18.96R1.8 
G1X58.4F0.15 
G2X55.Z-20.66R1.7F0.1
G1Z-31.F0.15 
G0X90. 
Z-34.8 
G1X86.F0.1 
G2X82.4Z-33.R1.8 
G1X58.4F0.15 
G3X55.Z-31.3R1.7F0.1 
G1Z-31.
G0X95. 
Z2.2 
M9 
G0G28U0
G0Z220.
M01
N4 
( TAKIM -7--DCMT 11T308 )
T0707
M34(Torna Modu Aktif)
G50S1800 
G96G99S220M3P11
G18
M8 
(-----TR-turn-on-solid5-----)
G0X98.2Z2.2
X29.874
G1Z-24.958F0.2 
G2X28.968Z-25.184R0.8
G1X27.868Z-25.734
X26. 
X25.436Z-25.706
G0Z2.2 
X33.75 
G1Z-24.95
X30.1
G2X29.874Z-24.958R0.8
G1X29.474Z-24.758
G0Z2.2 
X37.624
G1Z-24.95
X33.75 
X33.35Z-24.75
G0Z2.2 
X41.498
G1Z-24.95
X37.624
X37.224Z-24.75 
G0Z2.2 
X41.5
G1X43.5
Z-12.95
X43.1
G2X41.5Z-13.75R0.8 
G1X41.498Z-24.95 
X41.098Z-24.75 
X37.52Z-22.96F0.1
G0X37.5
Z2.146 
X46.2
Z2.143 
G1Z0.F0.1
G2X44.Z-1.1R1.1
G1Z-13.
X41.7
Z-25.
X29.938
X22.004Z-28.967
G0Z2.2 
X98.2
M9 
G0G28U0
G0Z180.
M01
N5 
( TAKIM -2--DNMG 150604 )
T0202
M34(Torna Modu Aktif)
G50S1800 
G96G99S400M3P11
G18
M8 
(-----FT-kontur10-----)
G0X95.Z2.2 
X52.524
Z0.
G1X43.2F0.05 
Z2.
G0X95. 
(-----FT-kontur11-----)
X95.Z2.
Z-3. 
X91.178
G1X47.498F0.1
X52.668Z-0.415 
G0Z2.
X45.7
G1Z0.F0.1
G3X47.5Z-0.9R0.9 
X47.8
G1Z-3. 
X83.2
G3X86.Z-4.4R1.4
G1Z-17.009 
G0X95. 
Z2.
M5P11
M9 
G0G28U0
G0Z220.
M5P11
M01
( TAKIM -10- MATKAP CAP 6.8MM  A118. DERECE T_Boyu 80.MM)
T1010
M35(Freze Modu)
G97G98S1800M3P12 
M8 
G28H0
G0C0.
(-----D-matkap1-----)
G0X68.Z10.C45. 
G83Z-16.R-11.5Q2000F70 
C135.Q2000 
C225.Q2000 
C315.Q2000 
G80
G0Z25. 
M9 
G0G28U0
G0Z150.
M5P12
M01
( TAKIM -9- MATKAP CAP 9.8MM  A118. DERECE T_Boyu 80.MM) 
(HAVSA)
T0909
M35(Freze Modu)
G97G98S1400M4P12 
M8 
G28H0
G0C0.
(-----D-matkap1-----)
G0X68.Z10.C45. 
G83Z-4.5R-12.5F70
C135.
C225.
C315.
G80
G99
G0Z25. 
M9 
G0G28U0
G0Z150.
M5P12
M01
( TAKIM -11- KLAVUZ M8. ADIM  1.25 MM T_Boyu 60.MM)
T1111
M35(Freze Modu)
G97G99S60M3P12 
M8 
G28H0
G0C0.
(-----D-matkap1-1-----)
G0X68.Z10.C45. 
G84Z-22.R-12.F1.25 
G80
G0Z10. 
 
G0C135.
G0X68.Z10. 
G99
G84Z-22.R-12.F1.25 
G80
G0Z10. 
 
G0C225.
G0X68.Z10. 
G99
G84Z-22.R-12.F1.25 
G80
G0Z10. 
 
G0C315.
G0X68.Z10. 
G99
G84Z-22.R-12.F1.25 
G80
G0Z10. 
G80
G0Z25. 
M9 
M5P12
M34(Torna Modu Aktif)
G0G28U0
G0Z200.
T0505
M30
%